%
O0000(CU1_BOTTOM)
(DATE=DD-MM-YY - 30-03-16 TIME=HH:MM - 12:57)
(MCX FILE - E:\SEEBECK_SOLIDWORKS\MASTERCAM\CU_BLOCK1_BOTTOM.SLDPRT)
(NC FILE - E:\SEEBECK_SOLIDWORKS\MASTERCAM\CU1_BOTTOM.NC)
(MATERIAL - ALUMINUM INCH - 2024)
( T6 |  1/8 FLAT ENDMILL | H6 )
N100 G20
N102 G0 G17 G40 G49 G80 G90
N104 T6 M6
N106 G0 G90 G54 X1.4728 Y1.5 A0. S5000 M3
N108 G43 H6 Z.25 M8
N110 Z.2
N112 G1 Z-.09 F6.16
N114 G3 X1.4494 Y1.5234 I-.0234 J0. F10.
N116 X1.4259 Y1.5 I0. J-.0234
N118 X1.4806 Y1.4453 I.0547 J0.
N120 X1.5353 Y1.5 I0. J.0547
N122 X1.5253 Y1.5402 I-.0859 J0.
N124 X1.465 Y1.5725 I-.0603 J-.0402
N126 X1.3925 Y1.5 I0. J-.0725
N128 X1.465 Y1.4275 I.0725 J0.
N130 X1.5375 Y1.5 I0. J.0725
N132 X1.5253 Y1.5402 I-.0725 J0.
N134 G0 Z.16
N136 X1.4728 Y1.5
N138 Z.11
N140 G1 Z-.18 F6.16
N142 G3 X1.4494 Y1.5234 I-.0234 J0. F10.
N144 X1.4259 Y1.5 I0. J-.0234
N146 X1.4806 Y1.4453 I.0547 J0.
N148 X1.5353 Y1.5 I0. J.0547
N150 X1.5253 Y1.5402 I-.0859 J0.
N152 X1.465 Y1.5725 I-.0603 J-.0402
N154 X1.3925 Y1.5 I0. J-.0725
N156 X1.465 Y1.4275 I.0725 J0.
N158 X1.5375 Y1.5 I0. J.0725
N160 X1.5253 Y1.5402 I-.0725 J0.
N162 G0 Z.07
N164 Z.25
N166 X1.4728 Y.5
N168 Z.2
N170 G1 Z-.09 F6.16
N172 G3 X1.4494 Y.5234 I-.0234 J0. F10.
N174 X1.4259 Y.5 I0. J-.0234
N176 X1.4806 Y.4453 I.0547 J0.
N178 X1.5353 Y.5 I0. J.0547
N180 X1.5253 Y.5402 I-.0859 J0.
N182 X1.465 Y.5725 I-.0603 J-.0402
N184 X1.3925 Y.5 I0. J-.0725
N186 X1.465 Y.4275 I.0725 J0.
N188 X1.5375 Y.5 I0. J.0725
N190 X1.5253 Y.5402 I-.0725 J0.
N192 G0 Z.16
N194 X1.4728 Y.5
N196 Z.11
N198 G1 Z-.18 F6.16
N200 G3 X1.4494 Y.5234 I-.0234 J0. F10.
N202 X1.4259 Y.5 I0. J-.0234
N204 X1.4806 Y.4453 I.0547 J0.
N206 X1.5353 Y.5 I0. J.0547
N208 X1.5253 Y.5402 I-.0859 J0.
N210 X1.465 Y.5725 I-.0603 J-.0402
N212 X1.3925 Y.5 I0. J-.0725
N214 X1.465 Y.4275 I.0725 J0.
N216 X1.5375 Y.5 I0. J.0725
N218 X1.5253 Y.5402 I-.0725 J0.
N220 G0 Z.07
N222 Z.25
N224 X.7878 Y1.5
N226 Z.2
N228 G1 Z-.09 F6.16
N230 G3 X.7644 Y1.5234 I-.0234 J0. F10.
N232 X.7409 Y1.5 I0. J-.0234
N234 X.7956 Y1.4453 I.0547 J0.
N236 X.8503 Y1.5 I0. J.0547
N238 X.8403 Y1.5402 I-.0859 J0.
N240 X.78 Y1.5725 I-.0603 J-.0402
N242 X.7075 Y1.5 I0. J-.0725
N244 X.78 Y1.4275 I.0725 J0.
N246 X.8525 Y1.5 I0. J.0725
N248 X.8403 Y1.5402 I-.0725 J0.
N250 G0 Z.16
N252 X.7878 Y1.5
N254 Z.11
N256 G1 Z-.18 F6.16
N258 G3 X.7644 Y1.5234 I-.0234 J0. F10.
N260 X.7409 Y1.5 I0. J-.0234
N262 X.7956 Y1.4453 I.0547 J0.
N264 X.8503 Y1.5 I0. J.0547
N266 X.8403 Y1.5402 I-.0859 J0.
N268 X.78 Y1.5725 I-.0603 J-.0402
N270 X.7075 Y1.5 I0. J-.0725
N272 X.78 Y1.4275 I.0725 J0.
N274 X.8525 Y1.5 I0. J.0725
N276 X.8403 Y1.5402 I-.0725 J0.
N278 G0 Z.07
N280 Z.25
N282 X.1953 Y1.5
N284 Z.2
N286 G1 Z-.09 F6.16
N288 G3 X.1719 Y1.5234 I-.0234 J0. F10.
N290 X.1484 Y1.5 I0. J-.0234
N292 X.2031 Y1.4453 I.0547 J0.
N294 X.2578 Y1.5 I0. J.0547
N296 X.2478 Y1.5402 I-.0859 J0.
N298 X.1875 Y1.5725 I-.0603 J-.0402
N300 X.115 Y1.5 I0. J-.0725
N302 X.1875 Y1.4275 I.0725 J0.
N304 X.26 Y1.5 I0. J.0725
N306 X.2478 Y1.5402 I-.0725 J0.
N308 G0 Z.16
N310 X.1953 Y1.5
N312 Z.11
N314 G1 Z-.18 F6.16
N316 G3 X.1719 Y1.5234 I-.0234 J0. F10.
N318 X.1484 Y1.5 I0. J-.0234
N320 X.2031 Y1.4453 I.0547 J0.
N322 X.2578 Y1.5 I0. J.0547
N324 X.2478 Y1.5402 I-.0859 J0.
N326 X.1875 Y1.5725 I-.0603 J-.0402
N328 X.115 Y1.5 I0. J-.0725
N330 X.1875 Y1.4275 I.0725 J0.
N332 X.26 Y1.5 I0. J.0725
N334 X.2478 Y1.5402 I-.0725 J0.
N336 G0 Z.07
N338 Z.25
N340 X.1953 Y.5
N342 Z.2
N344 G1 Z-.09 F6.16
N346 G3 X.1719 Y.5234 I-.0234 J0. F10.
N348 X.1484 Y.5 I0. J-.0234
N350 X.2031 Y.4453 I.0547 J0.
N352 X.2578 Y.5 I0. J.0547
N354 X.2478 Y.5402 I-.0859 J0.
N356 X.1875 Y.5725 I-.0603 J-.0402
N358 X.115 Y.5 I0. J-.0725
N360 X.1875 Y.4275 I.0725 J0.
N362 X.26 Y.5 I0. J.0725
N364 X.2478 Y.5402 I-.0725 J0.
N366 G0 Z.16
N368 X.1953 Y.5
N370 Z.11
N372 G1 Z-.18 F6.16
N374 G3 X.1719 Y.5234 I-.0234 J0. F10.
N376 X.1484 Y.5 I0. J-.0234
N378 X.2031 Y.4453 I.0547 J0.
N380 X.2578 Y.5 I0. J.0547
N382 X.2478 Y.5402 I-.0859 J0.
N384 X.1875 Y.5725 I-.0603 J-.0402
N386 X.115 Y.5 I0. J-.0725
N388 X.1875 Y.4275 I.0725 J0.
N390 X.26 Y.5 I0. J.0725
N392 X.2478 Y.5402 I-.0725 J0.
N394 G0 Z.07
N396 Z.25
N398 X.7878 Y.5
N400 Z.2
N402 G1 Z-.09 F6.16
N404 G3 X.7644 Y.5234 I-.0234 J0. F10.
N406 X.7409 Y.5 I0. J-.0234
N408 X.7956 Y.4453 I.0547 J0.
N410 X.8503 Y.5 I0. J.0547
N412 X.8403 Y.5402 I-.0859 J0.
N414 X.78 Y.5725 I-.0603 J-.0402
N416 X.7075 Y.5 I0. J-.0725
N418 X.78 Y.4275 I.0725 J0.
N420 X.8525 Y.5 I0. J.0725
N422 X.8403 Y.5402 I-.0725 J0.
N424 G0 Z.16
N426 X.7878 Y.5
N428 Z.11
N430 G1 Z-.18 F6.16
N432 G3 X.7644 Y.5234 I-.0234 J0. F10.
N434 X.7409 Y.5 I0. J-.0234
N436 X.7956 Y.4453 I.0547 J0.
N438 X.8503 Y.5 I0. J.0547
N440 X.8403 Y.5402 I-.0859 J0.
N442 X.78 Y.5725 I-.0603 J-.0402
N444 X.7075 Y.5 I0. J-.0725
N446 X.78 Y.4275 I.0725 J0.
N448 X.8525 Y.5 I0. J.0725
N450 X.8403 Y.5402 I-.0725 J0.
N452 G0 Z.07
N454 Z.25
N456 X2.1578 Y.5
N458 Z.2
N460 G1 Z-.09 F6.16
N462 G3 X2.1344 Y.5234 I-.0234 J0. F10.
N464 X2.1109 Y.5 I0. J-.0234
N466 X2.1656 Y.4453 I.0547 J0.
N468 X2.2203 Y.5 I0. J.0547
N470 X2.2103 Y.5402 I-.0859 J0.
N472 X2.15 Y.5725 I-.0603 J-.0402
N474 X2.0775 Y.5 I0. J-.0725
N476 X2.15 Y.4275 I.0725 J0.
N478 X2.2225 Y.5 I0. J.0725
N480 X2.2103 Y.5402 I-.0725 J0.
N482 G0 Z.16
N484 X2.1578 Y.5
N486 Z.11
N488 G1 Z-.18 F6.16
N490 G3 X2.1344 Y.5234 I-.0234 J0. F10.
N492 X2.1109 Y.5 I0. J-.0234
N494 X2.1656 Y.4453 I.0547 J0.
N496 X2.2203 Y.5 I0. J.0547
N498 X2.2103 Y.5402 I-.0859 J0.
N500 X2.15 Y.5725 I-.0603 J-.0402
N502 X2.0775 Y.5 I0. J-.0725
N504 X2.15 Y.4275 I.0725 J0.
N506 X2.2225 Y.5 I0. J.0725
N508 X2.2103 Y.5402 I-.0725 J0.
N510 G0 Z.07
N512 Z.25
N514 X2.7503 Y.5
N516 Z.2
N518 G1 Z-.09 F6.16
N520 G3 X2.7269 Y.5234 I-.0234 J0. F10.
N522 X2.7034 Y.5 I0. J-.0234
N524 X2.7581 Y.4453 I.0547 J0.
N526 X2.8128 Y.5 I0. J.0547
N528 X2.8028 Y.5402 I-.0859 J0.
N530 X2.7425 Y.5725 I-.0603 J-.0402
N532 X2.67 Y.5 I0. J-.0725
N534 X2.7425 Y.4275 I.0725 J0.
N536 X2.815 Y.5 I0. J.0725
N538 X2.8028 Y.5402 I-.0725 J0.
N540 G0 Z.16
N542 X2.7503 Y.5
N544 Z.11
N546 G1 Z-.18 F6.16
N548 G3 X2.7269 Y.5234 I-.0234 J0. F10.
N550 X2.7034 Y.5 I0. J-.0234
N552 X2.7581 Y.4453 I.0547 J0.
N554 X2.8128 Y.5 I0. J.0547
N556 X2.8028 Y.5402 I-.0859 J0.
N558 X2.7425 Y.5725 I-.0603 J-.0402
N560 X2.67 Y.5 I0. J-.0725
N562 X2.7425 Y.4275 I.0725 J0.
N564 X2.815 Y.5 I0. J.0725
N566 X2.8028 Y.5402 I-.0725 J0.
N568 G0 Z.07
N570 Z.25
N572 X2.7503 Y1.5
N574 Z.2
N576 G1 Z-.09 F6.16
N578 G3 X2.7269 Y1.5234 I-.0234 J0. F10.
N580 X2.7034 Y1.5 I0. J-.0234
N582 X2.7581 Y1.4453 I.0547 J0.
N584 X2.8128 Y1.5 I0. J.0547
N586 X2.8028 Y1.5402 I-.0859 J0.
N588 X2.7425 Y1.5725 I-.0603 J-.0402
N590 X2.67 Y1.5 I0. J-.0725
N592 X2.7425 Y1.4275 I.0725 J0.
N594 X2.815 Y1.5 I0. J.0725
N596 X2.8028 Y1.5402 I-.0725 J0.
N598 G0 Z.16
N600 X2.7503 Y1.5
N602 Z.11
N604 G1 Z-.18 F6.16
N606 G3 X2.7269 Y1.5234 I-.0234 J0. F10.
N608 X2.7034 Y1.5 I0. J-.0234
N610 X2.7581 Y1.4453 I.0547 J0.
N612 X2.8128 Y1.5 I0. J.0547
N614 X2.8028 Y1.5402 I-.0859 J0.
N616 X2.7425 Y1.5725 I-.0603 J-.0402
N618 X2.67 Y1.5 I0. J-.0725
N620 X2.7425 Y1.4275 I.0725 J0.
N622 X2.815 Y1.5 I0. J.0725
N624 X2.8028 Y1.5402 I-.0725 J0.
N626 G0 Z.07
N628 Z.25
N630 X2.1578 Y1.5
N632 Z.2
N634 G1 Z-.09 F6.16
N636 G3 X2.1344 Y1.5234 I-.0234 J0. F10.
N638 X2.1109 Y1.5 I0. J-.0234
N640 X2.1656 Y1.4453 I.0547 J0.
N642 X2.2203 Y1.5 I0. J.0547
N644 X2.2103 Y1.5402 I-.0859 J0.
N646 X2.15 Y1.5725 I-.0603 J-.0402
N648 X2.0775 Y1.5 I0. J-.0725
N650 X2.15 Y1.4275 I.0725 J0.
N652 X2.2225 Y1.5 I0. J.0725
N654 X2.2103 Y1.5402 I-.0725 J0.
N656 G0 Z.16
N658 X2.1578 Y1.5
N660 Z.11
N662 G1 Z-.18 F6.16
N664 G3 X2.1344 Y1.5234 I-.0234 J0. F10.
N666 X2.1109 Y1.5 I0. J-.0234
N668 X2.1656 Y1.4453 I.0547 J0.
N670 X2.2203 Y1.5 I0. J.0547
N672 X2.2103 Y1.5402 I-.0859 J0.
N674 X2.15 Y1.5725 I-.0603 J-.0402
N676 X2.0775 Y1.5 I0. J-.0725
N678 X2.15 Y1.4275 I.0725 J0.
N680 X2.2225 Y1.5 I0. J.0725
N682 X2.2103 Y1.5402 I-.0725 J0.
N684 G0 Z.25
N686 M5
N688 G91 G28 Z0. M9
N690 G28 X0. Y0. A0.
N692 M30
%
