%
O0000(CU1_TOP_HOLES)
(DATE=DD-MM-YY - 30-03-16 TIME=HH:MM - 12:59)
(MCX FILE - E:\SEEBECK_SOLIDWORKS\MASTERCAM\CU_BLOCK1_TOP_HOLES.SLDPRT)
(NC FILE - E:\SEEBECK_SOLIDWORKS\MASTERCAM\CU1_TOP_HOLES.NC)
(MATERIAL - ALUMINUM INCH - 2024)
( T1 |  1/8 CENTERDRILL | H1 )
( T2 |  NO. 16 DRILL | H2 )
( T3 |  NO. 31 DRILL | H3 )
N100 G20
N102 G0 G17 G40 G49 G80 G90
N104 T1 M6
N106 G0 G90 G54 X1.465 Y.5 A0. S5000 M3
N108 G43 H1 Z.1 M8
N110 G99 G81 Z-.0625 R.1 F6.
N112 Y1.5
N114 Y1.
N116 X.1875 Y.5
N118 X.78
N120 X2.15
N122 X2.7425
N124 Y1.5
N126 X2.15
N128 X.78
N130 X.1875
N132 G80
N134 M5
N136 G91 G28 Z0. M9
N138 A0.
N140 M01
N142 T2 M6
N144 G0 G90 G54 X1.465 Y.5 A0. S5000 M3
N146 G43 H2 Z.1 M8
N148 G99 G83 Z-.31 R.1 Q.05 F6.
N150 Y1.5
N152 X.1875 Y.5
N154 X.78
N156 X2.15
N158 X2.7425
N160 Y1.5
N162 X2.15
N164 X.78
N166 X.1875
N168 G80
N170 M5
N172 G91 G28 Z0. M9
N174 A0.
N176 M01
N178 T3 M6
N180 G0 G90 G54 X1.465 Y1. A0. S5000 M3
N182 G43 H3 Z.1 M8
N184 G99 G83 Z-.31 R.1 Q.05 F6.
N186 G80
N188 M5
N190 G91 G28 Z0. M9
N192 G28 X0. Y0. A0.
N194 M30
%
