%
O0000(CU1_TOP_SLOTS)
(DATE=DD-MM-YY - 30-03-16 TIME=HH:MM - 13:01)
(MCX FILE - E:\SEEBECK_SOLIDWORKS\MASTERCAM\CU_BLOCK1_TOP_SLOTS.SLDPRT)
(NC FILE - E:\SEEBECK_SOLIDWORKS\MASTERCAM\CU1_TOP_SLOTS.NC)
(MATERIAL - ALUMINUM INCH - 2024)
( T4 |  1/4 BALL ENDMILL | H4 )
( T5 |  3/8 BALL ENDMILL | H5 )
N100 G20
N102 G0 G17 G40 G49 G80 G90
N104 T4 M6
N106 G0 G90 G54 X0. Y.5 A0. S5000 M3
N108 G43 H4 Z.25 M8
N110 Z.2
N112 G1 Z-.0417 F6.42
N114 X2. F10.
N116 G0 Z.2083
N118 X0.
N120 Z.1583
N122 G1 Z-.0833 F6.42
N124 X2. F10.
N126 G0 Z.1667
N128 X0.
N130 Z.1167
N132 G1 Z-.125 F6.42
N134 X2. F10.
N136 G0 Z.125
N138 Z.25
N140 Y2.5
N142 Z.2
N144 G1 Z-.0417 F6.42
N146 X0. F10.
N148 G0 Z.2083
N150 X2.
N152 Z.1583
N154 G1 Z-.0833 F6.42
N156 X0. F10.
N158 G0 Z.1667
N160 X2.
N162 Z.1167
N164 G1 Z-.125 F6.42
N166 X0. F10.
N168 G0 Z.25
N170 M5
N172 G91 G28 Z0. M9
N174 A0.
N176 M01
N178 T5 M6
N180 G0 G90 G54 X0. Y1.09 A0. S4000 M3
N182 G43 H5 Z.25 M8
N184 Z.2
N186 G1 Z-.0469 F6.33
N188 X2. F10.
N190 G0 Z.2031
N192 X0.
N194 Z.1531
N196 G1 Z-.0938 F6.33
N198 X2. F10.
N200 G0 Z.1563
N202 X0.
N204 Z.1063
N206 G1 Z-.1406 F6.33
N208 X2. F10.
N210 G0 Z.1094
N212 X0.
N214 Z.0594
N216 G1 Z-.1875 F6.33
N218 X2. F10.
N220 G0 Z.0625
N222 Z.25
N224 Y1.84
N226 Z.2
N228 G1 Z-.0469 F6.33
N230 X0. F10.
N232 G0 Z.2031
N234 X2.
N236 Z.1531
N238 G1 Z-.0938 F6.33
N240 X0. F10.
N242 G0 Z.1563
N244 X2.
N246 Z.1063
N248 G1 Z-.1406 F6.33
N250 X0. F10.
N252 G0 Z.1094
N254 X2.
N256 Z.0594
N258 G1 Z-.1875 F6.33
N260 X0. F10.
N262 G0 Z.25
N264 M5
N266 G91 G28 Z0. M9
N268 G28 X0. Y0. A0.
N270 M30
%
