%
O0000(CU2_BOTTOM)
(DATE=DD-MM-YY - 30-03-16 TIME=HH:MM - 13:03)
(MCX FILE - E:\SEEBECK_SOLIDWORKS\MASTERCAM\CU_BLOCK2_BOTTOM.SLDPRT)
(NC FILE - E:\SEEBECK_SOLIDWORKS\MASTERCAM\CU2_BOTTOM.NC)
(MATERIAL - ALUMINUM INCH - 2024)
( T6 |  1/8 FLAT ENDMILL | H6 )
N100 G20
N102 G0 G17 G40 G49 G80 G90
N104 T6 M6
N106 G0 G90 G54 X.2067 Y1.5081 A0. S5000 M3
N108 G43 H6 Z.25 M8
N110 Z.1
N112 G1 Z0. F6.16
N114 Y1.67 Z-.0085 F10.
N116 X.2058 Y1.6759 Z-.0088
N118 X.203 Y1.6813 Z-.0091
N120 X.1988 Y1.6855 Z-.0095
N122 X.1934 Y1.6883 Z-.0098
N124 X.1875 Y1.6892 Z-.0101
N126 X.1816 Y1.6883 Z-.0104
N128 X.1762 Y1.6855 Z-.0107
N130 X.172 Y1.6813 Z-.011
N132 X.1692 Y1.6759 Z-.0113
N134 X.1683 Y1.67 Z-.0116
N136 Y1.33 Z-.0295
N138 X.1692 Y1.3241 Z-.0298
N140 X.172 Y1.3187 Z-.0301
N142 X.1762 Y1.3145 Z-.0304
N144 X.1816 Y1.3117 Z-.0307
N146 X.1875 Y1.3108 Z-.031
N148 X.1934 Y1.3117 Z-.0313
N150 X.1988 Y1.3145 Z-.0316
N152 X.203 Y1.3187 Z-.032
N154 X.2058 Y1.3241 Z-.0323
N156 X.2067 Y1.33 Z-.0326
N158 Y1.67 Z-.0504
N160 X.2058 Y1.6759 Z-.0507
N162 X.203 Y1.6813 Z-.051
N164 X.1988 Y1.6855 Z-.0514
N166 X.1934 Y1.6883 Z-.0517
N168 X.1875 Y1.6892 Z-.052
N170 X.1816 Y1.6883 Z-.0523
N172 X.1762 Y1.6855 Z-.0526
N174 X.172 Y1.6813 Z-.053
N176 X.1692 Y1.6759 Z-.0533
N178 X.1683 Y1.67 Z-.0536
N180 Y1.5 Z-.0625
N182 Y1.33
N184 G3 X.1875 Y1.3108 I.0192 J0.
N186 X.2067 Y1.33 I0. J.0192
N188 G1 Y1.67
N190 G3 X.1875 Y1.6892 I-.0192 J0.
N192 X.1683 Y1.67 I0. J-.0192
N194 G1 Y1.5
N196 G3 X.1875 Y1.4808 I.0192 J0.
N198 X.2067 Y1.5 I0. J.0192
N200 X.1683 Y1.5384 I-.0384 J0.
N202 X.13 Y1.5 I0. J-.0384
N204 G1 Y1.33
N206 G3 X.1875 Y1.2725 I.0575 J0.
N208 X.245 Y1.33 I0. J.0575
N210 G1 Y1.67
N212 G3 X.1875 Y1.7275 I-.0575 J0.
N214 X.13 Y1.67 I0. J-.0575
N216 G1 Y1.5
N218 X.1875 F6.16
N220 G3 X.1338 Y1.5537 I-.0537 J0. F10.
N222 X.08 Y1.5 I0. J-.0537
N224 G1 Y1.33
N226 G3 X.1875 Y1.2225 I.1075 J0.
N228 X.295 Y1.33 I0. J.1075
N230 G1 Y1.67
N232 G3 X.1875 Y1.7775 I-.1075 J0.
N234 X.08 Y1.67 I0. J-.1075
N236 G1 Y1.5
N238 G3 X.1338 Y1.4462 I.0538 J0.
N240 X.1875 Y1.5 I0. J.0538
N242 G0 Z.25
N244 X.2067 Y1.5081
N246 Z.1
N248 G1 Z-.0625 F6.16
N250 Y1.67 Z-.071 F10.
N252 X.2058 Y1.6759 Z-.0713
N254 X.203 Y1.6813 Z-.0716
N256 X.1988 Y1.6855 Z-.072
N258 X.1934 Y1.6883 Z-.0723
N260 X.1875 Y1.6892 Z-.0726
N262 X.1816 Y1.6883 Z-.0729
N264 X.1762 Y1.6855 Z-.0732
N266 X.172 Y1.6813 Z-.0735
N268 X.1692 Y1.6759 Z-.0738
N270 X.1683 Y1.67 Z-.0741
N272 Y1.33 Z-.092
N274 X.1692 Y1.3241 Z-.0923
N276 X.172 Y1.3187 Z-.0926
N278 X.1762 Y1.3145 Z-.0929
N280 X.1816 Y1.3117 Z-.0932
N282 X.1875 Y1.3108 Z-.0935
N284 X.1934 Y1.3117 Z-.0938
N286 X.1988 Y1.3145 Z-.0941
N288 X.203 Y1.3187 Z-.0945
N290 X.2058 Y1.3241 Z-.0948
N292 X.2067 Y1.33 Z-.0951
N294 Y1.67 Z-.1129
N296 X.2058 Y1.6759 Z-.1132
N298 X.203 Y1.6813 Z-.1135
N300 X.1988 Y1.6855 Z-.1139
N302 X.1934 Y1.6883 Z-.1142
N304 X.1875 Y1.6892 Z-.1145
N306 X.1816 Y1.6883 Z-.1148
N308 X.1762 Y1.6855 Z-.1151
N310 X.172 Y1.6813 Z-.1155
N312 X.1692 Y1.6759 Z-.1158
N314 X.1683 Y1.67 Z-.1161
N316 Y1.5 Z-.125
N318 Y1.33
N320 G3 X.1875 Y1.3108 I.0192 J0.
N322 X.2067 Y1.33 I0. J.0192
N324 G1 Y1.67
N326 G3 X.1875 Y1.6892 I-.0192 J0.
N328 X.1683 Y1.67 I0. J-.0192
N330 G1 Y1.5
N332 G3 X.1875 Y1.4808 I.0192 J0.
N334 X.2067 Y1.5 I0. J.0192
N336 X.1683 Y1.5384 I-.0384 J0.
N338 X.13 Y1.5 I0. J-.0384
N340 G1 Y1.33
N342 G3 X.1875 Y1.2725 I.0575 J0.
N344 X.245 Y1.33 I0. J.0575
N346 G1 Y1.67
N348 G3 X.1875 Y1.7275 I-.0575 J0.
N350 X.13 Y1.67 I0. J-.0575
N352 G1 Y1.5
N354 X.1875 F6.16
N356 G3 X.1338 Y1.5537 I-.0537 J0. F10.
N358 X.08 Y1.5 I0. J-.0537
N360 G1 Y1.33
N362 G3 X.1875 Y1.2225 I.1075 J0.
N364 X.295 Y1.33 I0. J.1075
N366 G1 Y1.67
N368 G3 X.1875 Y1.7775 I-.1075 J0.
N370 X.08 Y1.67 I0. J-.1075
N372 G1 Y1.5
N374 G3 X.1338 Y1.4462 I.0538 J0.
N376 X.1875 Y1.5 I0. J.0538
N378 G0 Z.25
N380 X.7992 Y1.5081
N382 Z.1
N384 G1 Z0. F6.16
N386 Y1.67 Z-.0085 F10.
N388 X.7983 Y1.6759 Z-.0088
N390 X.7955 Y1.6813 Z-.0091
N392 X.7913 Y1.6855 Z-.0095
N394 X.7859 Y1.6883 Z-.0098
N396 X.78 Y1.6892 Z-.0101
N398 X.7741 Y1.6883 Z-.0104
N400 X.7687 Y1.6855 Z-.0107
N402 X.7645 Y1.6813 Z-.011
N404 X.7617 Y1.6759 Z-.0113
N406 X.7608 Y1.67 Z-.0116
N408 Y1.33 Z-.0295
N410 X.7617 Y1.3241 Z-.0298
N412 X.7645 Y1.3187 Z-.0301
N414 X.7687 Y1.3145 Z-.0304
N416 X.7741 Y1.3117 Z-.0307
N418 X.78 Y1.3108 Z-.031
N420 X.7859 Y1.3117 Z-.0313
N422 X.7913 Y1.3145 Z-.0316
N424 X.7955 Y1.3187 Z-.032
N426 X.7983 Y1.3241 Z-.0323
N428 X.7992 Y1.33 Z-.0326
N430 Y1.67 Z-.0504
N432 X.7983 Y1.6759 Z-.0507
N434 X.7955 Y1.6813 Z-.051
N436 X.7913 Y1.6855 Z-.0514
N438 X.7859 Y1.6883 Z-.0517
N440 X.78 Y1.6892 Z-.052
N442 X.7741 Y1.6883 Z-.0523
N444 X.7687 Y1.6855 Z-.0526
N446 X.7645 Y1.6813 Z-.053
N448 X.7617 Y1.6759 Z-.0533
N450 X.7608 Y1.67 Z-.0536
N452 Y1.5 Z-.0625
N454 Y1.33
N456 G3 X.78 Y1.3108 I.0192 J0.
N458 X.7992 Y1.33 I0. J.0192
N460 G1 Y1.67
N462 G3 X.78 Y1.6892 I-.0192 J0.
N464 X.7608 Y1.67 I0. J-.0192
N466 G1 Y1.5
N468 G3 X.78 Y1.4808 I.0192 J0.
N470 X.7992 Y1.5 I0. J.0192
N472 X.7608 Y1.5384 I-.0384 J0.
N474 X.7225 Y1.5 I0. J-.0384
N476 G1 Y1.33
N478 G3 X.78 Y1.2725 I.0575 J0.
N480 X.8375 Y1.33 I0. J.0575
N482 G1 Y1.67
N484 G3 X.78 Y1.7275 I-.0575 J0.
N486 X.7225 Y1.67 I0. J-.0575
N488 G1 Y1.5
N490 X.78 F6.16
N492 G3 X.7262 Y1.5538 I-.0538 J0. F10.
N494 X.6725 Y1.5 I0. J-.0538
N496 G1 Y1.33
N498 G3 X.78 Y1.2225 I.1075 J0.
N500 X.8875 Y1.33 I0. J.1075
N502 G1 Y1.67
N504 G3 X.78 Y1.7775 I-.1075 J0.
N506 X.6725 Y1.67 I0. J-.1075
N508 G1 Y1.5
N510 G3 X.7262 Y1.4463 I.0537 J0.
N512 X.78 Y1.5 I0. J.0537
N514 G0 Z.25
N516 X.7992 Y1.5081
N518 Z.1
N520 G1 Z-.0625 F6.16
N522 Y1.67 Z-.071 F10.
N524 X.7983 Y1.6759 Z-.0713
N526 X.7955 Y1.6813 Z-.0716
N528 X.7913 Y1.6855 Z-.072
N530 X.7859 Y1.6883 Z-.0723
N532 X.78 Y1.6892 Z-.0726
N534 X.7741 Y1.6883 Z-.0729
N536 X.7687 Y1.6855 Z-.0732
N538 X.7645 Y1.6813 Z-.0735
N540 X.7617 Y1.6759 Z-.0738
N542 X.7608 Y1.67 Z-.0741
N544 Y1.33 Z-.092
N546 X.7617 Y1.3241 Z-.0923
N548 X.7645 Y1.3187 Z-.0926
N550 X.7687 Y1.3145 Z-.0929
N552 X.7741 Y1.3117 Z-.0932
N554 X.78 Y1.3108 Z-.0935
N556 X.7859 Y1.3117 Z-.0938
N558 X.7913 Y1.3145 Z-.0941
N560 X.7955 Y1.3187 Z-.0945
N562 X.7983 Y1.3241 Z-.0948
N564 X.7992 Y1.33 Z-.0951
N566 Y1.67 Z-.1129
N568 X.7983 Y1.6759 Z-.1132
N570 X.7955 Y1.6813 Z-.1135
N572 X.7913 Y1.6855 Z-.1139
N574 X.7859 Y1.6883 Z-.1142
N576 X.78 Y1.6892 Z-.1145
N578 X.7741 Y1.6883 Z-.1148
N580 X.7687 Y1.6855 Z-.1151
N582 X.7645 Y1.6813 Z-.1155
N584 X.7617 Y1.6759 Z-.1158
N586 X.7608 Y1.67 Z-.1161
N588 Y1.5 Z-.125
N590 Y1.33
N592 G3 X.78 Y1.3108 I.0192 J0.
N594 X.7992 Y1.33 I0. J.0192
N596 G1 Y1.67
N598 G3 X.78 Y1.6892 I-.0192 J0.
N600 X.7608 Y1.67 I0. J-.0192
N602 G1 Y1.5
N604 G3 X.78 Y1.4808 I.0192 J0.
N606 X.7992 Y1.5 I0. J.0192
N608 X.7608 Y1.5384 I-.0384 J0.
N610 X.7225 Y1.5 I0. J-.0384
N612 G1 Y1.33
N614 G3 X.78 Y1.2725 I.0575 J0.
N616 X.8375 Y1.33 I0. J.0575
N618 G1 Y1.67
N620 G3 X.78 Y1.7275 I-.0575 J0.
N622 X.7225 Y1.67 I0. J-.0575
N624 G1 Y1.5
N626 X.78 F6.16
N628 G3 X.7262 Y1.5538 I-.0538 J0. F10.
N630 X.6725 Y1.5 I0. J-.0538
N632 G1 Y1.33
N634 G3 X.78 Y1.2225 I.1075 J0.
N636 X.8875 Y1.33 I0. J.1075
N638 G1 Y1.67
N640 G3 X.78 Y1.7775 I-.1075 J0.
N642 X.6725 Y1.67 I0. J-.1075
N644 G1 Y1.5
N646 G3 X.7262 Y1.4463 I.0537 J0.
N648 X.78 Y1.5 I0. J.0537
N650 G0 Z.25
N652 X1.4842 Y1.5081
N654 Z.1
N656 G1 Z0. F6.16
N658 Y1.67 Z-.0085 F10.
N660 X1.4833 Y1.6759 Z-.0088
N662 X1.4805 Y1.6813 Z-.0091
N664 X1.4763 Y1.6855 Z-.0095
N666 X1.4709 Y1.6883 Z-.0098
N668 X1.465 Y1.6892 Z-.0101
N670 X1.4591 Y1.6883 Z-.0104
N672 X1.4537 Y1.6855 Z-.0107
N674 X1.4495 Y1.6813 Z-.011
N676 X1.4467 Y1.6759 Z-.0113
N678 X1.4458 Y1.67 Z-.0116
N680 Y1.33 Z-.0295
N682 X1.4467 Y1.3241 Z-.0298
N684 X1.4495 Y1.3187 Z-.0301
N686 X1.4537 Y1.3145 Z-.0304
N688 X1.4591 Y1.3117 Z-.0307
N690 X1.465 Y1.3108 Z-.031
N692 X1.4709 Y1.3117 Z-.0313
N694 X1.4763 Y1.3145 Z-.0316
N696 X1.4805 Y1.3187 Z-.032
N698 X1.4833 Y1.3241 Z-.0323
N700 X1.4842 Y1.33 Z-.0326
N702 Y1.67 Z-.0504
N704 X1.4833 Y1.6759 Z-.0507
N706 X1.4805 Y1.6813 Z-.051
N708 X1.4763 Y1.6855 Z-.0514
N710 X1.4709 Y1.6883 Z-.0517
N712 X1.465 Y1.6892 Z-.052
N714 X1.4591 Y1.6883 Z-.0523
N716 X1.4537 Y1.6855 Z-.0526
N718 X1.4495 Y1.6813 Z-.053
N720 X1.4467 Y1.6759 Z-.0533
N722 X1.4458 Y1.67 Z-.0536
N724 Y1.5 Z-.0625
N726 Y1.33
N728 G3 X1.465 Y1.3108 I.0192 J0.
N730 X1.4842 Y1.33 I0. J.0192
N732 G1 Y1.67
N734 G3 X1.465 Y1.6892 I-.0192 J0.
N736 X1.4458 Y1.67 I0. J-.0192
N738 G1 Y1.5
N740 G3 X1.465 Y1.4808 I.0192 J0.
N742 X1.4842 Y1.5 I0. J.0192
N744 X1.4458 Y1.5384 I-.0384 J0.
N746 X1.4075 Y1.5 I0. J-.0384
N748 G1 Y1.33
N750 G3 X1.465 Y1.2725 I.0575 J0.
N752 X1.5225 Y1.33 I0. J.0575
N754 G1 Y1.67
N756 G3 X1.465 Y1.7275 I-.0575 J0.
N758 X1.4075 Y1.67 I0. J-.0575
N760 G1 Y1.5
N762 X1.465 F6.16
N764 G3 X1.4112 Y1.5538 I-.0538 J0. F10.
N766 X1.3575 Y1.5 I0. J-.0538
N768 G1 Y1.33
N770 G3 X1.465 Y1.2225 I.1075 J0.
N772 X1.5725 Y1.33 I0. J.1075
N774 G1 Y1.67
N776 G3 X1.465 Y1.7775 I-.1075 J0.
N778 X1.3575 Y1.67 I0. J-.1075
N780 G1 Y1.5
N782 G3 X1.4112 Y1.4463 I.0537 J0.
N784 X1.465 Y1.5 I0. J.0537
N786 G0 Z.25
N788 X1.4842 Y1.5081
N790 Z.1
N792 G1 Z-.0625 F6.16
N794 Y1.67 Z-.071 F10.
N796 X1.4833 Y1.6759 Z-.0713
N798 X1.4805 Y1.6813 Z-.0716
N800 X1.4763 Y1.6855 Z-.072
N802 X1.4709 Y1.6883 Z-.0723
N804 X1.465 Y1.6892 Z-.0726
N806 X1.4591 Y1.6883 Z-.0729
N808 X1.4537 Y1.6855 Z-.0732
N810 X1.4495 Y1.6813 Z-.0735
N812 X1.4467 Y1.6759 Z-.0738
N814 X1.4458 Y1.67 Z-.0741
N816 Y1.33 Z-.092
N818 X1.4467 Y1.3241 Z-.0923
N820 X1.4495 Y1.3187 Z-.0926
N822 X1.4537 Y1.3145 Z-.0929
N824 X1.4591 Y1.3117 Z-.0932
N826 X1.465 Y1.3108 Z-.0935
N828 X1.4709 Y1.3117 Z-.0938
N830 X1.4763 Y1.3145 Z-.0941
N832 X1.4805 Y1.3187 Z-.0945
N834 X1.4833 Y1.3241 Z-.0948
N836 X1.4842 Y1.33 Z-.0951
N838 Y1.67 Z-.1129
N840 X1.4833 Y1.6759 Z-.1132
N842 X1.4805 Y1.6813 Z-.1135
N844 X1.4763 Y1.6855 Z-.1139
N846 X1.4709 Y1.6883 Z-.1142
N848 X1.465 Y1.6892 Z-.1145
N850 X1.4591 Y1.6883 Z-.1148
N852 X1.4537 Y1.6855 Z-.1151
N854 X1.4495 Y1.6813 Z-.1155
N856 X1.4467 Y1.6759 Z-.1158
N858 X1.4458 Y1.67 Z-.1161
N860 Y1.5 Z-.125
N862 Y1.33
N864 G3 X1.465 Y1.3108 I.0192 J0.
N866 X1.4842 Y1.33 I0. J.0192
N868 G1 Y1.67
N870 G3 X1.465 Y1.6892 I-.0192 J0.
N872 X1.4458 Y1.67 I0. J-.0192
N874 G1 Y1.5
N876 G3 X1.465 Y1.4808 I.0192 J0.
N878 X1.4842 Y1.5 I0. J.0192
N880 X1.4458 Y1.5384 I-.0384 J0.
N882 X1.4075 Y1.5 I0. J-.0384
N884 G1 Y1.33
N886 G3 X1.465 Y1.2725 I.0575 J0.
N888 X1.5225 Y1.33 I0. J.0575
N890 G1 Y1.67
N892 G3 X1.465 Y1.7275 I-.0575 J0.
N894 X1.4075 Y1.67 I0. J-.0575
N896 G1 Y1.5
N898 X1.465 F6.16
N900 G3 X1.4112 Y1.5538 I-.0538 J0. F10.
N902 X1.3575 Y1.5 I0. J-.0538
N904 G1 Y1.33
N906 G3 X1.465 Y1.2225 I.1075 J0.
N908 X1.5725 Y1.33 I0. J.1075
N910 G1 Y1.67
N912 G3 X1.465 Y1.7775 I-.1075 J0.
N914 X1.3575 Y1.67 I0. J-.1075
N916 G1 Y1.5
N918 G3 X1.4112 Y1.4463 I.0537 J0.
N920 X1.465 Y1.5 I0. J.0537
N922 G0 Z.25
N924 X2.1692 Y1.5081
N926 Z.1
N928 G1 Z0. F6.16
N930 Y1.67 Z-.0085 F10.
N932 X2.1683 Y1.6759 Z-.0088
N934 X2.1655 Y1.6813 Z-.0091
N936 X2.1613 Y1.6855 Z-.0095
N938 X2.1559 Y1.6883 Z-.0098
N940 X2.15 Y1.6892 Z-.0101
N942 X2.1441 Y1.6883 Z-.0104
N944 X2.1387 Y1.6855 Z-.0107
N946 X2.1345 Y1.6813 Z-.011
N948 X2.1317 Y1.6759 Z-.0113
N950 X2.1308 Y1.67 Z-.0116
N952 Y1.33 Z-.0295
N954 X2.1317 Y1.3241 Z-.0298
N956 X2.1345 Y1.3187 Z-.0301
N958 X2.1387 Y1.3145 Z-.0304
N960 X2.1441 Y1.3117 Z-.0307
N962 X2.15 Y1.3108 Z-.031
N964 X2.1559 Y1.3117 Z-.0313
N966 X2.1613 Y1.3145 Z-.0316
N968 X2.1655 Y1.3187 Z-.032
N970 X2.1683 Y1.3241 Z-.0323
N972 X2.1692 Y1.33 Z-.0326
N974 Y1.67 Z-.0504
N976 X2.1683 Y1.6759 Z-.0507
N978 X2.1655 Y1.6813 Z-.051
N980 X2.1613 Y1.6855 Z-.0514
N982 X2.1559 Y1.6883 Z-.0517
N984 X2.15 Y1.6892 Z-.052
N986 X2.1441 Y1.6883 Z-.0523
N988 X2.1387 Y1.6855 Z-.0526
N990 X2.1345 Y1.6813 Z-.053
N992 X2.1317 Y1.6759 Z-.0533
N994 X2.1308 Y1.67 Z-.0536
N996 Y1.5 Z-.0625
N998 Y1.33
N1000 G3 X2.15 Y1.3108 I.0192 J0.
N1002 X2.1692 Y1.33 I0. J.0192
N1004 G1 Y1.67
N1006 G3 X2.15 Y1.6892 I-.0192 J0.
N1008 X2.1308 Y1.67 I0. J-.0192
N1010 G1 Y1.5
N1012 G3 X2.15 Y1.4808 I.0192 J0.
N1014 X2.1692 Y1.5 I0. J.0192
N1016 X2.1308 Y1.5384 I-.0384 J0.
N1018 X2.0925 Y1.5 I0. J-.0384
N1020 G1 Y1.33
N1022 G3 X2.15 Y1.2725 I.0575 J0.
N1024 X2.2075 Y1.33 I0. J.0575
N1026 G1 Y1.67
N1028 G3 X2.15 Y1.7275 I-.0575 J0.
N1030 X2.0925 Y1.67 I0. J-.0575
N1032 G1 Y1.5
N1034 X2.15 F6.16
N1036 G3 X2.0962 Y1.5538 I-.0538 J0. F10.
N1038 X2.0425 Y1.5 I0. J-.0538
N1040 G1 Y1.33
N1042 G3 X2.15 Y1.2225 I.1075 J0.
N1044 X2.2575 Y1.33 I0. J.1075
N1046 G1 Y1.67
N1048 G3 X2.15 Y1.7775 I-.1075 J0.
N1050 X2.0425 Y1.67 I0. J-.1075
N1052 G1 Y1.5
N1054 G3 X2.0962 Y1.4463 I.0537 J0.
N1056 X2.15 Y1.5 I0. J.0537
N1058 G0 Z.25
N1060 X2.1692 Y1.5081
N1062 Z.1
N1064 G1 Z-.0625 F6.16
N1066 Y1.67 Z-.071 F10.
N1068 X2.1683 Y1.6759 Z-.0713
N1070 X2.1655 Y1.6813 Z-.0716
N1072 X2.1613 Y1.6855 Z-.072
N1074 X2.1559 Y1.6883 Z-.0723
N1076 X2.15 Y1.6892 Z-.0726
N1078 X2.1441 Y1.6883 Z-.0729
N1080 X2.1387 Y1.6855 Z-.0732
N1082 X2.1345 Y1.6813 Z-.0735
N1084 X2.1317 Y1.6759 Z-.0738
N1086 X2.1308 Y1.67 Z-.0741
N1088 Y1.33 Z-.092
N1090 X2.1317 Y1.3241 Z-.0923
N1092 X2.1345 Y1.3187 Z-.0926
N1094 X2.1387 Y1.3145 Z-.0929
N1096 X2.1441 Y1.3117 Z-.0932
N1098 X2.15 Y1.3108 Z-.0935
N1100 X2.1559 Y1.3117 Z-.0938
N1102 X2.1613 Y1.3145 Z-.0941
N1104 X2.1655 Y1.3187 Z-.0945
N1106 X2.1683 Y1.3241 Z-.0948
N1108 X2.1692 Y1.33 Z-.0951
N1110 Y1.67 Z-.1129
N1112 X2.1683 Y1.6759 Z-.1132
N1114 X2.1655 Y1.6813 Z-.1135
N1116 X2.1613 Y1.6855 Z-.1139
N1118 X2.1559 Y1.6883 Z-.1142
N1120 X2.15 Y1.6892 Z-.1145
N1122 X2.1441 Y1.6883 Z-.1148
N1124 X2.1387 Y1.6855 Z-.1151
N1126 X2.1345 Y1.6813 Z-.1155
N1128 X2.1317 Y1.6759 Z-.1158
N1130 X2.1308 Y1.67 Z-.1161
N1132 Y1.5 Z-.125
N1134 Y1.33
N1136 G3 X2.15 Y1.3108 I.0192 J0.
N1138 X2.1692 Y1.33 I0. J.0192
N1140 G1 Y1.67
N1142 G3 X2.15 Y1.6892 I-.0192 J0.
N1144 X2.1308 Y1.67 I0. J-.0192
N1146 G1 Y1.5
N1148 G3 X2.15 Y1.4808 I.0192 J0.
N1150 X2.1692 Y1.5 I0. J.0192
N1152 X2.1308 Y1.5384 I-.0384 J0.
N1154 X2.0925 Y1.5 I0. J-.0384
N1156 G1 Y1.33
N1158 G3 X2.15 Y1.2725 I.0575 J0.
N1160 X2.2075 Y1.33 I0. J.0575
N1162 G1 Y1.67
N1164 G3 X2.15 Y1.7275 I-.0575 J0.
N1166 X2.0925 Y1.67 I0. J-.0575
N1168 G1 Y1.5
N1170 X2.15 F6.16
N1172 G3 X2.0962 Y1.5538 I-.0538 J0. F10.
N1174 X2.0425 Y1.5 I0. J-.0538
N1176 G1 Y1.33
N1178 G3 X2.15 Y1.2225 I.1075 J0.
N1180 X2.2575 Y1.33 I0. J.1075
N1182 G1 Y1.67
N1184 G3 X2.15 Y1.7775 I-.1075 J0.
N1186 X2.0425 Y1.67 I0. J-.1075
N1188 G1 Y1.5
N1190 G3 X2.0962 Y1.4463 I.0537 J0.
N1192 X2.15 Y1.5 I0. J.0537
N1194 G0 Z.25
N1196 X2.7617 Y1.5081
N1198 Z.1
N1200 G1 Z0. F6.16
N1202 Y1.67 Z-.0085 F10.
N1204 X2.7608 Y1.6759 Z-.0088
N1206 X2.758 Y1.6813 Z-.0091
N1208 X2.7538 Y1.6855 Z-.0095
N1210 X2.7484 Y1.6883 Z-.0098
N1212 X2.7425 Y1.6892 Z-.0101
N1214 X2.7366 Y1.6883 Z-.0104
N1216 X2.7312 Y1.6855 Z-.0107
N1218 X2.727 Y1.6813 Z-.011
N1220 X2.7242 Y1.6759 Z-.0113
N1222 X2.7233 Y1.67 Z-.0116
N1224 Y1.33 Z-.0295
N1226 X2.7242 Y1.3241 Z-.0298
N1228 X2.727 Y1.3187 Z-.0301
N1230 X2.7312 Y1.3145 Z-.0304
N1232 X2.7366 Y1.3117 Z-.0307
N1234 X2.7425 Y1.3108 Z-.031
N1236 X2.7484 Y1.3117 Z-.0313
N1238 X2.7538 Y1.3145 Z-.0316
N1240 X2.758 Y1.3187 Z-.032
N1242 X2.7608 Y1.3241 Z-.0323
N1244 X2.7617 Y1.33 Z-.0326
N1246 Y1.67 Z-.0504
N1248 X2.7608 Y1.6759 Z-.0507
N1250 X2.758 Y1.6813 Z-.051
N1252 X2.7538 Y1.6855 Z-.0514
N1254 X2.7484 Y1.6883 Z-.0517
N1256 X2.7425 Y1.6892 Z-.052
N1258 X2.7366 Y1.6883 Z-.0523
N1260 X2.7312 Y1.6855 Z-.0526
N1262 X2.727 Y1.6813 Z-.053
N1264 X2.7242 Y1.6759 Z-.0533
N1266 X2.7233 Y1.67 Z-.0536
N1268 Y1.5 Z-.0625
N1270 Y1.33
N1272 G3 X2.7425 Y1.3108 I.0192 J0.
N1274 X2.7617 Y1.33 I0. J.0192
N1276 G1 Y1.67
N1278 G3 X2.7425 Y1.6892 I-.0192 J0.
N1280 X2.7233 Y1.67 I0. J-.0192
N1282 G1 Y1.5
N1284 G3 X2.7425 Y1.4808 I.0192 J0.
N1286 X2.7617 Y1.5 I0. J.0192
N1288 X2.7233 Y1.5384 I-.0384 J0.
N1290 X2.685 Y1.5 I0. J-.0384
N1292 G1 Y1.33
N1294 G3 X2.7425 Y1.2725 I.0575 J0.
N1296 X2.8 Y1.33 I0. J.0575
N1298 G1 Y1.67
N1300 G3 X2.7425 Y1.7275 I-.0575 J0.
N1302 X2.685 Y1.67 I0. J-.0575
N1304 G1 Y1.5
N1306 X2.7425 F6.16
N1308 G3 X2.6888 Y1.5537 I-.0537 J0. F10.
N1310 X2.635 Y1.5 I0. J-.0537
N1312 G1 Y1.33
N1314 G3 X2.7425 Y1.2225 I.1075 J0.
N1316 X2.85 Y1.33 I0. J.1075
N1318 G1 Y1.67
N1320 G3 X2.7425 Y1.7775 I-.1075 J0.
N1322 X2.635 Y1.67 I0. J-.1075
N1324 G1 Y1.5
N1326 G3 X2.6888 Y1.4462 I.0538 J0.
N1328 X2.7425 Y1.5 I0. J.0538
N1330 G0 Z.25
N1332 X2.7617 Y1.5081
N1334 Z.1
N1336 G1 Z-.0625 F6.16
N1338 Y1.67 Z-.071 F10.
N1340 X2.7608 Y1.6759 Z-.0713
N1342 X2.758 Y1.6813 Z-.0716
N1344 X2.7538 Y1.6855 Z-.072
N1346 X2.7484 Y1.6883 Z-.0723
N1348 X2.7425 Y1.6892 Z-.0726
N1350 X2.7366 Y1.6883 Z-.0729
N1352 X2.7312 Y1.6855 Z-.0732
N1354 X2.727 Y1.6813 Z-.0735
N1356 X2.7242 Y1.6759 Z-.0738
N1358 X2.7233 Y1.67 Z-.0741
N1360 Y1.33 Z-.092
N1362 X2.7242 Y1.3241 Z-.0923
N1364 X2.727 Y1.3187 Z-.0926
N1366 X2.7312 Y1.3145 Z-.0929
N1368 X2.7366 Y1.3117 Z-.0932
N1370 X2.7425 Y1.3108 Z-.0935
N1372 X2.7484 Y1.3117 Z-.0938
N1374 X2.7538 Y1.3145 Z-.0941
N1376 X2.758 Y1.3187 Z-.0945
N1378 X2.7608 Y1.3241 Z-.0948
N1380 X2.7617 Y1.33 Z-.0951
N1382 Y1.67 Z-.1129
N1384 X2.7608 Y1.6759 Z-.1132
N1386 X2.758 Y1.6813 Z-.1135
N1388 X2.7538 Y1.6855 Z-.1139
N1390 X2.7484 Y1.6883 Z-.1142
N1392 X2.7425 Y1.6892 Z-.1145
N1394 X2.7366 Y1.6883 Z-.1148
N1396 X2.7312 Y1.6855 Z-.1151
N1398 X2.727 Y1.6813 Z-.1155
N1400 X2.7242 Y1.6759 Z-.1158
N1402 X2.7233 Y1.67 Z-.1161
N1404 Y1.5 Z-.125
N1406 Y1.33
N1408 G3 X2.7425 Y1.3108 I.0192 J0.
N1410 X2.7617 Y1.33 I0. J.0192
N1412 G1 Y1.67
N1414 G3 X2.7425 Y1.6892 I-.0192 J0.
N1416 X2.7233 Y1.67 I0. J-.0192
N1418 G1 Y1.5
N1420 G3 X2.7425 Y1.4808 I.0192 J0.
N1422 X2.7617 Y1.5 I0. J.0192
N1424 X2.7233 Y1.5384 I-.0384 J0.
N1426 X2.685 Y1.5 I0. J-.0384
N1428 G1 Y1.33
N1430 G3 X2.7425 Y1.2725 I.0575 J0.
N1432 X2.8 Y1.33 I0. J.0575
N1434 G1 Y1.67
N1436 G3 X2.7425 Y1.7275 I-.0575 J0.
N1438 X2.685 Y1.67 I0. J-.0575
N1440 G1 Y1.5
N1442 X2.7425 F6.16
N1444 G3 X2.6888 Y1.5537 I-.0537 J0. F10.
N1446 X2.635 Y1.5 I0. J-.0537
N1448 G1 Y1.33
N1450 G3 X2.7425 Y1.2225 I.1075 J0.
N1452 X2.85 Y1.33 I0. J.1075
N1454 G1 Y1.67
N1456 G3 X2.7425 Y1.7775 I-.1075 J0.
N1458 X2.635 Y1.67 I0. J-.1075
N1460 G1 Y1.5
N1462 G3 X2.6888 Y1.4462 I.0538 J0.
N1464 X2.7425 Y1.5 I0. J.0538
N1466 G0 Z.25
N1468 X2.7617 Y.5081
N1470 Z.1
N1472 G1 Z0. F6.16
N1474 Y.67 Z-.0085 F10.
N1476 X2.7608 Y.6759 Z-.0088
N1478 X2.758 Y.6813 Z-.0091
N1480 X2.7538 Y.6855 Z-.0095
N1482 X2.7484 Y.6883 Z-.0098
N1484 X2.7425 Y.6892 Z-.0101
N1486 X2.7366 Y.6883 Z-.0104
N1488 X2.7312 Y.6855 Z-.0107
N1490 X2.727 Y.6813 Z-.011
N1492 X2.7242 Y.6759 Z-.0113
N1494 X2.7233 Y.67 Z-.0116
N1496 Y.33 Z-.0295
N1498 X2.7242 Y.3241 Z-.0298
N1500 X2.727 Y.3187 Z-.0301
N1502 X2.7312 Y.3145 Z-.0304
N1504 X2.7366 Y.3117 Z-.0307
N1506 X2.7425 Y.3108 Z-.031
N1508 X2.7484 Y.3117 Z-.0313
N1510 X2.7538 Y.3145 Z-.0316
N1512 X2.758 Y.3187 Z-.032
N1514 X2.7608 Y.3241 Z-.0323
N1516 X2.7617 Y.33 Z-.0326
N1518 Y.67 Z-.0504
N1520 X2.7608 Y.6759 Z-.0507
N1522 X2.758 Y.6813 Z-.051
N1524 X2.7538 Y.6855 Z-.0514
N1526 X2.7484 Y.6883 Z-.0517
N1528 X2.7425 Y.6892 Z-.052
N1530 X2.7366 Y.6883 Z-.0523
N1532 X2.7312 Y.6855 Z-.0526
N1534 X2.727 Y.6813 Z-.053
N1536 X2.7242 Y.6759 Z-.0533
N1538 X2.7233 Y.67 Z-.0536
N1540 Y.5 Z-.0625
N1542 Y.33
N1544 G3 X2.7425 Y.3108 I.0192 J0.
N1546 X2.7617 Y.33 I0. J.0192
N1548 G1 Y.67
N1550 G3 X2.7425 Y.6892 I-.0192 J0.
N1552 X2.7233 Y.67 I0. J-.0192
N1554 G1 Y.5
N1556 G3 X2.7425 Y.4808 I.0192 J0.
N1558 X2.7617 Y.5 I0. J.0192
N1560 X2.7233 Y.5384 I-.0384 J0.
N1562 X2.685 Y.5 I0. J-.0384
N1564 G1 Y.33
N1566 G3 X2.7425 Y.2725 I.0575 J0.
N1568 X2.8 Y.33 I0. J.0575
N1570 G1 Y.67
N1572 G3 X2.7425 Y.7275 I-.0575 J0.
N1574 X2.685 Y.67 I0. J-.0575
N1576 G1 Y.5
N1578 X2.7425 F6.16
N1580 G3 X2.6888 Y.5537 I-.0537 J0. F10.
N1582 X2.635 Y.5 I0. J-.0537
N1584 G1 Y.33
N1586 G3 X2.7425 Y.2225 I.1075 J0.
N1588 X2.85 Y.33 I0. J.1075
N1590 G1 Y.67
N1592 G3 X2.7425 Y.7775 I-.1075 J0.
N1594 X2.635 Y.67 I0. J-.1075
N1596 G1 Y.5
N1598 G3 X2.6888 Y.4462 I.0538 J0.
N1600 X2.7425 Y.5 I0. J.0538
N1602 G0 Z.25
N1604 X2.7617 Y.5081
N1606 Z.1
N1608 G1 Z-.0625 F6.16
N1610 Y.67 Z-.071 F10.
N1612 X2.7608 Y.6759 Z-.0713
N1614 X2.758 Y.6813 Z-.0716
N1616 X2.7538 Y.6855 Z-.072
N1618 X2.7484 Y.6883 Z-.0723
N1620 X2.7425 Y.6892 Z-.0726
N1622 X2.7366 Y.6883 Z-.0729
N1624 X2.7312 Y.6855 Z-.0732
N1626 X2.727 Y.6813 Z-.0735
N1628 X2.7242 Y.6759 Z-.0738
N1630 X2.7233 Y.67 Z-.0741
N1632 Y.33 Z-.092
N1634 X2.7242 Y.3241 Z-.0923
N1636 X2.727 Y.3187 Z-.0926
N1638 X2.7312 Y.3145 Z-.0929
N1640 X2.7366 Y.3117 Z-.0932
N1642 X2.7425 Y.3108 Z-.0935
N1644 X2.7484 Y.3117 Z-.0938
N1646 X2.7538 Y.3145 Z-.0941
N1648 X2.758 Y.3187 Z-.0945
N1650 X2.7608 Y.3241 Z-.0948
N1652 X2.7617 Y.33 Z-.0951
N1654 Y.67 Z-.1129
N1656 X2.7608 Y.6759 Z-.1132
N1658 X2.758 Y.6813 Z-.1135
N1660 X2.7538 Y.6855 Z-.1139
N1662 X2.7484 Y.6883 Z-.1142
N1664 X2.7425 Y.6892 Z-.1145
N1666 X2.7366 Y.6883 Z-.1148
N1668 X2.7312 Y.6855 Z-.1151
N1670 X2.727 Y.6813 Z-.1155
N1672 X2.7242 Y.6759 Z-.1158
N1674 X2.7233 Y.67 Z-.1161
N1676 Y.5 Z-.125
N1678 Y.33
N1680 G3 X2.7425 Y.3108 I.0192 J0.
N1682 X2.7617 Y.33 I0. J.0192
N1684 G1 Y.67
N1686 G3 X2.7425 Y.6892 I-.0192 J0.
N1688 X2.7233 Y.67 I0. J-.0192
N1690 G1 Y.5
N1692 G3 X2.7425 Y.4808 I.0192 J0.
N1694 X2.7617 Y.5 I0. J.0192
N1696 X2.7233 Y.5384 I-.0384 J0.
N1698 X2.685 Y.5 I0. J-.0384
N1700 G1 Y.33
N1702 G3 X2.7425 Y.2725 I.0575 J0.
N1704 X2.8 Y.33 I0. J.0575
N1706 G1 Y.67
N1708 G3 X2.7425 Y.7275 I-.0575 J0.
N1710 X2.685 Y.67 I0. J-.0575
N1712 G1 Y.5
N1714 X2.7425 F6.16
N1716 G3 X2.6888 Y.5537 I-.0537 J0. F10.
N1718 X2.635 Y.5 I0. J-.0537
N1720 G1 Y.33
N1722 G3 X2.7425 Y.2225 I.1075 J0.
N1724 X2.85 Y.33 I0. J.1075
N1726 G1 Y.67
N1728 G3 X2.7425 Y.7775 I-.1075 J0.
N1730 X2.635 Y.67 I0. J-.1075
N1732 G1 Y.5
N1734 G3 X2.6888 Y.4462 I.0538 J0.
N1736 X2.7425 Y.5 I0. J.0538
N1738 G0 Z.25
N1740 X2.1692 Y.5081
N1742 Z.1
N1744 G1 Z0. F6.16
N1746 Y.67 Z-.0085 F10.
N1748 X2.1683 Y.6759 Z-.0088
N1750 X2.1655 Y.6813 Z-.0091
N1752 X2.1613 Y.6855 Z-.0095
N1754 X2.1559 Y.6883 Z-.0098
N1756 X2.15 Y.6892 Z-.0101
N1758 X2.1441 Y.6883 Z-.0104
N1760 X2.1387 Y.6855 Z-.0107
N1762 X2.1345 Y.6813 Z-.011
N1764 X2.1317 Y.6759 Z-.0113
N1766 X2.1308 Y.67 Z-.0116
N1768 Y.33 Z-.0295
N1770 X2.1317 Y.3241 Z-.0298
N1772 X2.1345 Y.3187 Z-.0301
N1774 X2.1387 Y.3145 Z-.0304
N1776 X2.1441 Y.3117 Z-.0307
N1778 X2.15 Y.3108 Z-.031
N1780 X2.1559 Y.3117 Z-.0313
N1782 X2.1613 Y.3145 Z-.0316
N1784 X2.1655 Y.3187 Z-.032
N1786 X2.1683 Y.3241 Z-.0323
N1788 X2.1692 Y.33 Z-.0326
N1790 Y.67 Z-.0504
N1792 X2.1683 Y.6759 Z-.0507
N1794 X2.1655 Y.6813 Z-.051
N1796 X2.1613 Y.6855 Z-.0514
N1798 X2.1559 Y.6883 Z-.0517
N1800 X2.15 Y.6892 Z-.052
N1802 X2.1441 Y.6883 Z-.0523
N1804 X2.1387 Y.6855 Z-.0526
N1806 X2.1345 Y.6813 Z-.053
N1808 X2.1317 Y.6759 Z-.0533
N1810 X2.1308 Y.67 Z-.0536
N1812 Y.5 Z-.0625
N1814 Y.33
N1816 G3 X2.15 Y.3108 I.0192 J0.
N1818 X2.1692 Y.33 I0. J.0192
N1820 G1 Y.67
N1822 G3 X2.15 Y.6892 I-.0192 J0.
N1824 X2.1308 Y.67 I0. J-.0192
N1826 G1 Y.5
N1828 G3 X2.15 Y.4808 I.0192 J0.
N1830 X2.1692 Y.5 I0. J.0192
N1832 X2.1308 Y.5384 I-.0384 J0.
N1834 X2.0925 Y.5 I0. J-.0384
N1836 G1 Y.33
N1838 G3 X2.15 Y.2725 I.0575 J0.
N1840 X2.2075 Y.33 I0. J.0575
N1842 G1 Y.67
N1844 G3 X2.15 Y.7275 I-.0575 J0.
N1846 X2.0925 Y.67 I0. J-.0575
N1848 G1 Y.5
N1850 X2.15 F6.16
N1852 G3 X2.0962 Y.5538 I-.0538 J0. F10.
N1854 X2.0425 Y.5 I0. J-.0538
N1856 G1 Y.33
N1858 G3 X2.15 Y.2225 I.1075 J0.
N1860 X2.2575 Y.33 I0. J.1075
N1862 G1 Y.67
N1864 G3 X2.15 Y.7775 I-.1075 J0.
N1866 X2.0425 Y.67 I0. J-.1075
N1868 G1 Y.5
N1870 G3 X2.0962 Y.4463 I.0537 J0.
N1872 X2.15 Y.5 I0. J.0537
N1874 G0 Z.25
N1876 X2.1692 Y.5081
N1878 Z.1
N1880 G1 Z-.0625 F6.16
N1882 Y.67 Z-.071 F10.
N1884 X2.1683 Y.6759 Z-.0713
N1886 X2.1655 Y.6813 Z-.0716
N1888 X2.1613 Y.6855 Z-.072
N1890 X2.1559 Y.6883 Z-.0723
N1892 X2.15 Y.6892 Z-.0726
N1894 X2.1441 Y.6883 Z-.0729
N1896 X2.1387 Y.6855 Z-.0732
N1898 X2.1345 Y.6813 Z-.0735
N1900 X2.1317 Y.6759 Z-.0738
N1902 X2.1308 Y.67 Z-.0741
N1904 Y.33 Z-.092
N1906 X2.1317 Y.3241 Z-.0923
N1908 X2.1345 Y.3187 Z-.0926
N1910 X2.1387 Y.3145 Z-.0929
N1912 X2.1441 Y.3117 Z-.0932
N1914 X2.15 Y.3108 Z-.0935
N1916 X2.1559 Y.3117 Z-.0938
N1918 X2.1613 Y.3145 Z-.0941
N1920 X2.1655 Y.3187 Z-.0945
N1922 X2.1683 Y.3241 Z-.0948
N1924 X2.1692 Y.33 Z-.0951
N1926 Y.67 Z-.1129
N1928 X2.1683 Y.6759 Z-.1132
N1930 X2.1655 Y.6813 Z-.1135
N1932 X2.1613 Y.6855 Z-.1139
N1934 X2.1559 Y.6883 Z-.1142
N1936 X2.15 Y.6892 Z-.1145
N1938 X2.1441 Y.6883 Z-.1148
N1940 X2.1387 Y.6855 Z-.1151
N1942 X2.1345 Y.6813 Z-.1155
N1944 X2.1317 Y.6759 Z-.1158
N1946 X2.1308 Y.67 Z-.1161
N1948 Y.5 Z-.125
N1950 Y.33
N1952 G3 X2.15 Y.3108 I.0192 J0.
N1954 X2.1692 Y.33 I0. J.0192
N1956 G1 Y.67
N1958 G3 X2.15 Y.6892 I-.0192 J0.
N1960 X2.1308 Y.67 I0. J-.0192
N1962 G1 Y.5
N1964 G3 X2.15 Y.4808 I.0192 J0.
N1966 X2.1692 Y.5 I0. J.0192
N1968 X2.1308 Y.5384 I-.0384 J0.
N1970 X2.0925 Y.5 I0. J-.0384
N1972 G1 Y.33
N1974 G3 X2.15 Y.2725 I.0575 J0.
N1976 X2.2075 Y.33 I0. J.0575
N1978 G1 Y.67
N1980 G3 X2.15 Y.7275 I-.0575 J0.
N1982 X2.0925 Y.67 I0. J-.0575
N1984 G1 Y.5
N1986 X2.15 F6.16
N1988 G3 X2.0962 Y.5538 I-.0538 J0. F10.
N1990 X2.0425 Y.5 I0. J-.0538
N1992 G1 Y.33
N1994 G3 X2.15 Y.2225 I.1075 J0.
N1996 X2.2575 Y.33 I0. J.1075
N1998 G1 Y.67
N2000 G3 X2.15 Y.7775 I-.1075 J0.
N2002 X2.0425 Y.67 I0. J-.1075
N2004 G1 Y.5
N2006 G3 X2.0962 Y.4463 I.0537 J0.
N2008 X2.15 Y.5 I0. J.0537
N2010 G0 Z.25
N2012 X1.4842 Y.5081
N2014 Z.1
N2016 G1 Z0. F6.16
N2018 Y.67 Z-.0085 F10.
N2020 X1.4833 Y.6759 Z-.0088
N2022 X1.4805 Y.6813 Z-.0091
N2024 X1.4763 Y.6855 Z-.0095
N2026 X1.4709 Y.6883 Z-.0098
N2028 X1.465 Y.6892 Z-.0101
N2030 X1.4591 Y.6883 Z-.0104
N2032 X1.4537 Y.6855 Z-.0107
N2034 X1.4495 Y.6813 Z-.011
N2036 X1.4467 Y.6759 Z-.0113
N2038 X1.4458 Y.67 Z-.0116
N2040 Y.33 Z-.0295
N2042 X1.4467 Y.3241 Z-.0298
N2044 X1.4495 Y.3187 Z-.0301
N2046 X1.4537 Y.3145 Z-.0304
N2048 X1.4591 Y.3117 Z-.0307
N2050 X1.465 Y.3108 Z-.031
N2052 X1.4709 Y.3117 Z-.0313
N2054 X1.4763 Y.3145 Z-.0316
N2056 X1.4805 Y.3187 Z-.032
N2058 X1.4833 Y.3241 Z-.0323
N2060 X1.4842 Y.33 Z-.0326
N2062 Y.67 Z-.0504
N2064 X1.4833 Y.6759 Z-.0507
N2066 X1.4805 Y.6813 Z-.051
N2068 X1.4763 Y.6855 Z-.0514
N2070 X1.4709 Y.6883 Z-.0517
N2072 X1.465 Y.6892 Z-.052
N2074 X1.4591 Y.6883 Z-.0523
N2076 X1.4537 Y.6855 Z-.0526
N2078 X1.4495 Y.6813 Z-.053
N2080 X1.4467 Y.6759 Z-.0533
N2082 X1.4458 Y.67 Z-.0536
N2084 Y.5 Z-.0625
N2086 Y.33
N2088 G3 X1.465 Y.3108 I.0192 J0.
N2090 X1.4842 Y.33 I0. J.0192
N2092 G1 Y.67
N2094 G3 X1.465 Y.6892 I-.0192 J0.
N2096 X1.4458 Y.67 I0. J-.0192
N2098 G1 Y.5
N2100 G3 X1.465 Y.4808 I.0192 J0.
N2102 X1.4842 Y.5 I0. J.0192
N2104 X1.4458 Y.5384 I-.0384 J0.
N2106 X1.4075 Y.5 I0. J-.0384
N2108 G1 Y.33
N2110 G3 X1.465 Y.2725 I.0575 J0.
N2112 X1.5225 Y.33 I0. J.0575
N2114 G1 Y.67
N2116 G3 X1.465 Y.7275 I-.0575 J0.
N2118 X1.4075 Y.67 I0. J-.0575
N2120 G1 Y.5
N2122 X1.465 F6.16
N2124 G3 X1.4112 Y.5538 I-.0538 J0. F10.
N2126 X1.3575 Y.5 I0. J-.0538
N2128 G1 Y.33
N2130 G3 X1.465 Y.2225 I.1075 J0.
N2132 X1.5725 Y.33 I0. J.1075
N2134 G1 Y.67
N2136 G3 X1.465 Y.7775 I-.1075 J0.
N2138 X1.3575 Y.67 I0. J-.1075
N2140 G1 Y.5
N2142 G3 X1.4112 Y.4463 I.0537 J0.
N2144 X1.465 Y.5 I0. J.0537
N2146 G0 Z.25
N2148 X1.4842 Y.5081
N2150 Z.1
N2152 G1 Z-.0625 F6.16
N2154 Y.67 Z-.071 F10.
N2156 X1.4833 Y.6759 Z-.0713
N2158 X1.4805 Y.6813 Z-.0716
N2160 X1.4763 Y.6855 Z-.072
N2162 X1.4709 Y.6883 Z-.0723
N2164 X1.465 Y.6892 Z-.0726
N2166 X1.4591 Y.6883 Z-.0729
N2168 X1.4537 Y.6855 Z-.0732
N2170 X1.4495 Y.6813 Z-.0735
N2172 X1.4467 Y.6759 Z-.0738
N2174 X1.4458 Y.67 Z-.0741
N2176 Y.33 Z-.092
N2178 X1.4467 Y.3241 Z-.0923
N2180 X1.4495 Y.3187 Z-.0926
N2182 X1.4537 Y.3145 Z-.0929
N2184 X1.4591 Y.3117 Z-.0932
N2186 X1.465 Y.3108 Z-.0935
N2188 X1.4709 Y.3117 Z-.0938
N2190 X1.4763 Y.3145 Z-.0941
N2192 X1.4805 Y.3187 Z-.0945
N2194 X1.4833 Y.3241 Z-.0948
N2196 X1.4842 Y.33 Z-.0951
N2198 Y.67 Z-.1129
N2200 X1.4833 Y.6759 Z-.1132
N2202 X1.4805 Y.6813 Z-.1135
N2204 X1.4763 Y.6855 Z-.1139
N2206 X1.4709 Y.6883 Z-.1142
N2208 X1.465 Y.6892 Z-.1145
N2210 X1.4591 Y.6883 Z-.1148
N2212 X1.4537 Y.6855 Z-.1151
N2214 X1.4495 Y.6813 Z-.1155
N2216 X1.4467 Y.6759 Z-.1158
N2218 X1.4458 Y.67 Z-.1161
N2220 Y.5 Z-.125
N2222 Y.33
N2224 G3 X1.465 Y.3108 I.0192 J0.
N2226 X1.4842 Y.33 I0. J.0192
N2228 G1 Y.67
N2230 G3 X1.465 Y.6892 I-.0192 J0.
N2232 X1.4458 Y.67 I0. J-.0192
N2234 G1 Y.5
N2236 G3 X1.465 Y.4808 I.0192 J0.
N2238 X1.4842 Y.5 I0. J.0192
N2240 X1.4458 Y.5384 I-.0384 J0.
N2242 X1.4075 Y.5 I0. J-.0384
N2244 G1 Y.33
N2246 G3 X1.465 Y.2725 I.0575 J0.
N2248 X1.5225 Y.33 I0. J.0575
N2250 G1 Y.67
N2252 G3 X1.465 Y.7275 I-.0575 J0.
N2254 X1.4075 Y.67 I0. J-.0575
N2256 G1 Y.5
N2258 X1.465 F6.16
N2260 G3 X1.4112 Y.5538 I-.0538 J0. F10.
N2262 X1.3575 Y.5 I0. J-.0538
N2264 G1 Y.33
N2266 G3 X1.465 Y.2225 I.1075 J0.
N2268 X1.5725 Y.33 I0. J.1075
N2270 G1 Y.67
N2272 G3 X1.465 Y.7775 I-.1075 J0.
N2274 X1.3575 Y.67 I0. J-.1075
N2276 G1 Y.5
N2278 G3 X1.4112 Y.4463 I.0537 J0.
N2280 X1.465 Y.5 I0. J.0537
N2282 G0 Z.25
N2284 X.7992 Y.5081
N2286 Z.1
N2288 G1 Z0. F6.16
N2290 Y.67 Z-.0085 F10.
N2292 X.7983 Y.6759 Z-.0088
N2294 X.7955 Y.6813 Z-.0091
N2296 X.7913 Y.6855 Z-.0095
N2298 X.7859 Y.6883 Z-.0098
N2300 X.78 Y.6892 Z-.0101
N2302 X.7741 Y.6883 Z-.0104
N2304 X.7687 Y.6855 Z-.0107
N2306 X.7645 Y.6813 Z-.011
N2308 X.7617 Y.6759 Z-.0113
N2310 X.7608 Y.67 Z-.0116
N2312 Y.33 Z-.0295
N2314 X.7617 Y.3241 Z-.0298
N2316 X.7645 Y.3187 Z-.0301
N2318 X.7687 Y.3145 Z-.0304
N2320 X.7741 Y.3117 Z-.0307
N2322 X.78 Y.3108 Z-.031
N2324 X.7859 Y.3117 Z-.0313
N2326 X.7913 Y.3145 Z-.0316
N2328 X.7955 Y.3187 Z-.032
N2330 X.7983 Y.3241 Z-.0323
N2332 X.7992 Y.33 Z-.0326
N2334 Y.67 Z-.0504
N2336 X.7983 Y.6759 Z-.0507
N2338 X.7955 Y.6813 Z-.051
N2340 X.7913 Y.6855 Z-.0514
N2342 X.7859 Y.6883 Z-.0517
N2344 X.78 Y.6892 Z-.052
N2346 X.7741 Y.6883 Z-.0523
N2348 X.7687 Y.6855 Z-.0526
N2350 X.7645 Y.6813 Z-.053
N2352 X.7617 Y.6759 Z-.0533
N2354 X.7608 Y.67 Z-.0536
N2356 Y.5 Z-.0625
N2358 Y.33
N2360 G3 X.78 Y.3108 I.0192 J0.
N2362 X.7992 Y.33 I0. J.0192
N2364 G1 Y.67
N2366 G3 X.78 Y.6892 I-.0192 J0.
N2368 X.7608 Y.67 I0. J-.0192
N2370 G1 Y.5
N2372 G3 X.78 Y.4808 I.0192 J0.
N2374 X.7992 Y.5 I0. J.0192
N2376 X.7608 Y.5384 I-.0384 J0.
N2378 X.7225 Y.5 I0. J-.0384
N2380 G1 Y.33
N2382 G3 X.78 Y.2725 I.0575 J0.
N2384 X.8375 Y.33 I0. J.0575
N2386 G1 Y.67
N2388 G3 X.78 Y.7275 I-.0575 J0.
N2390 X.7225 Y.67 I0. J-.0575
N2392 G1 Y.5
N2394 X.78 F6.16
N2396 G3 X.7262 Y.5538 I-.0538 J0. F10.
N2398 X.6725 Y.5 I0. J-.0538
N2400 G1 Y.33
N2402 G3 X.78 Y.2225 I.1075 J0.
N2404 X.8875 Y.33 I0. J.1075
N2406 G1 Y.67
N2408 G3 X.78 Y.7775 I-.1075 J0.
N2410 X.6725 Y.67 I0. J-.1075
N2412 G1 Y.5
N2414 G3 X.7262 Y.4463 I.0537 J0.
N2416 X.78 Y.5 I0. J.0537
N2418 G0 Z.25
N2420 X.7992 Y.5081
N2422 Z.1
N2424 G1 Z-.0625 F6.16
N2426 Y.67 Z-.071 F10.
N2428 X.7983 Y.6759 Z-.0713
N2430 X.7955 Y.6813 Z-.0716
N2432 X.7913 Y.6855 Z-.072
N2434 X.7859 Y.6883 Z-.0723
N2436 X.78 Y.6892 Z-.0726
N2438 X.7741 Y.6883 Z-.0729
N2440 X.7687 Y.6855 Z-.0732
N2442 X.7645 Y.6813 Z-.0735
N2444 X.7617 Y.6759 Z-.0738
N2446 X.7608 Y.67 Z-.0741
N2448 Y.33 Z-.092
N2450 X.7617 Y.3241 Z-.0923
N2452 X.7645 Y.3187 Z-.0926
N2454 X.7687 Y.3145 Z-.0929
N2456 X.7741 Y.3117 Z-.0932
N2458 X.78 Y.3108 Z-.0935
N2460 X.7859 Y.3117 Z-.0938
N2462 X.7913 Y.3145 Z-.0941
N2464 X.7955 Y.3187 Z-.0945
N2466 X.7983 Y.3241 Z-.0948
N2468 X.7992 Y.33 Z-.0951
N2470 Y.67 Z-.1129
N2472 X.7983 Y.6759 Z-.1132
N2474 X.7955 Y.6813 Z-.1135
N2476 X.7913 Y.6855 Z-.1139
N2478 X.7859 Y.6883 Z-.1142
N2480 X.78 Y.6892 Z-.1145
N2482 X.7741 Y.6883 Z-.1148
N2484 X.7687 Y.6855 Z-.1151
N2486 X.7645 Y.6813 Z-.1155
N2488 X.7617 Y.6759 Z-.1158
N2490 X.7608 Y.67 Z-.1161
N2492 Y.5 Z-.125
N2494 Y.33
N2496 G3 X.78 Y.3108 I.0192 J0.
N2498 X.7992 Y.33 I0. J.0192
N2500 G1 Y.67
N2502 G3 X.78 Y.6892 I-.0192 J0.
N2504 X.7608 Y.67 I0. J-.0192
N2506 G1 Y.5
N2508 G3 X.78 Y.4808 I.0192 J0.
N2510 X.7992 Y.5 I0. J.0192
N2512 X.7608 Y.5384 I-.0384 J0.
N2514 X.7225 Y.5 I0. J-.0384
N2516 G1 Y.33
N2518 G3 X.78 Y.2725 I.0575 J0.
N2520 X.8375 Y.33 I0. J.0575
N2522 G1 Y.67
N2524 G3 X.78 Y.7275 I-.0575 J0.
N2526 X.7225 Y.67 I0. J-.0575
N2528 G1 Y.5
N2530 X.78 F6.16
N2532 G3 X.7262 Y.5538 I-.0538 J0. F10.
N2534 X.6725 Y.5 I0. J-.0538
N2536 G1 Y.33
N2538 G3 X.78 Y.2225 I.1075 J0.
N2540 X.8875 Y.33 I0. J.1075
N2542 G1 Y.67
N2544 G3 X.78 Y.7775 I-.1075 J0.
N2546 X.6725 Y.67 I0. J-.1075
N2548 G1 Y.5
N2550 G3 X.7262 Y.4463 I.0537 J0.
N2552 X.78 Y.5 I0. J.0537
N2554 G0 Z.25
N2556 X.2067 Y.5081
N2558 Z.1
N2560 G1 Z0. F6.16
N2562 Y.67 Z-.0085 F10.
N2564 X.2058 Y.6759 Z-.0088
N2566 X.203 Y.6813 Z-.0091
N2568 X.1988 Y.6855 Z-.0095
N2570 X.1934 Y.6883 Z-.0098
N2572 X.1875 Y.6892 Z-.0101
N2574 X.1816 Y.6883 Z-.0104
N2576 X.1762 Y.6855 Z-.0107
N2578 X.172 Y.6813 Z-.011
N2580 X.1692 Y.6759 Z-.0113
N2582 X.1683 Y.67 Z-.0116
N2584 Y.33 Z-.0295
N2586 X.1692 Y.3241 Z-.0298
N2588 X.172 Y.3187 Z-.0301
N2590 X.1762 Y.3145 Z-.0304
N2592 X.1816 Y.3117 Z-.0307
N2594 X.1875 Y.3108 Z-.031
N2596 X.1934 Y.3117 Z-.0313
N2598 X.1988 Y.3145 Z-.0316
N2600 X.203 Y.3187 Z-.032
N2602 X.2058 Y.3241 Z-.0323
N2604 X.2067 Y.33 Z-.0326
N2606 Y.67 Z-.0504
N2608 X.2058 Y.6759 Z-.0507
N2610 X.203 Y.6813 Z-.051
N2612 X.1988 Y.6855 Z-.0514
N2614 X.1934 Y.6883 Z-.0517
N2616 X.1875 Y.6892 Z-.052
N2618 X.1816 Y.6883 Z-.0523
N2620 X.1762 Y.6855 Z-.0526
N2622 X.172 Y.6813 Z-.053
N2624 X.1692 Y.6759 Z-.0533
N2626 X.1683 Y.67 Z-.0536
N2628 Y.5 Z-.0625
N2630 Y.33
N2632 G3 X.1875 Y.3108 I.0192 J0.
N2634 X.2067 Y.33 I0. J.0192
N2636 G1 Y.67
N2638 G3 X.1875 Y.6892 I-.0192 J0.
N2640 X.1683 Y.67 I0. J-.0192
N2642 G1 Y.5
N2644 G3 X.1875 Y.4808 I.0192 J0.
N2646 X.2067 Y.5 I0. J.0192
N2648 X.1683 Y.5384 I-.0384 J0.
N2650 X.13 Y.5 I0. J-.0384
N2652 G1 Y.33
N2654 G3 X.1875 Y.2725 I.0575 J0.
N2656 X.245 Y.33 I0. J.0575
N2658 G1 Y.67
N2660 G3 X.1875 Y.7275 I-.0575 J0.
N2662 X.13 Y.67 I0. J-.0575
N2664 G1 Y.5
N2666 X.1875 F6.16
N2668 G3 X.1338 Y.5537 I-.0537 J0. F10.
N2670 X.08 Y.5 I0. J-.0537
N2672 G1 Y.33
N2674 G3 X.1875 Y.2225 I.1075 J0.
N2676 X.295 Y.33 I0. J.1075
N2678 G1 Y.67
N2680 G3 X.1875 Y.7775 I-.1075 J0.
N2682 X.08 Y.67 I0. J-.1075
N2684 G1 Y.5
N2686 G3 X.1338 Y.4462 I.0538 J0.
N2688 X.1875 Y.5 I0. J.0538
N2690 G0 Z.25
N2692 X.2067 Y.5081
N2694 Z.1
N2696 G1 Z-.0625 F6.16
N2698 Y.67 Z-.071 F10.
N2700 X.2058 Y.6759 Z-.0713
N2702 X.203 Y.6813 Z-.0716
N2704 X.1988 Y.6855 Z-.072
N2706 X.1934 Y.6883 Z-.0723
N2708 X.1875 Y.6892 Z-.0726
N2710 X.1816 Y.6883 Z-.0729
N2712 X.1762 Y.6855 Z-.0732
N2714 X.172 Y.6813 Z-.0735
N2716 X.1692 Y.6759 Z-.0738
N2718 X.1683 Y.67 Z-.0741
N2720 Y.33 Z-.092
N2722 X.1692 Y.3241 Z-.0923
N2724 X.172 Y.3187 Z-.0926
N2726 X.1762 Y.3145 Z-.0929
N2728 X.1816 Y.3117 Z-.0932
N2730 X.1875 Y.3108 Z-.0935
N2732 X.1934 Y.3117 Z-.0938
N2734 X.1988 Y.3145 Z-.0941
N2736 X.203 Y.3187 Z-.0945
N2738 X.2058 Y.3241 Z-.0948
N2740 X.2067 Y.33 Z-.0951
N2742 Y.67 Z-.1129
N2744 X.2058 Y.6759 Z-.1132
N2746 X.203 Y.6813 Z-.1135
N2748 X.1988 Y.6855 Z-.1139
N2750 X.1934 Y.6883 Z-.1142
N2752 X.1875 Y.6892 Z-.1145
N2754 X.1816 Y.6883 Z-.1148
N2756 X.1762 Y.6855 Z-.1151
N2758 X.172 Y.6813 Z-.1155
N2760 X.1692 Y.6759 Z-.1158
N2762 X.1683 Y.67 Z-.1161
N2764 Y.5 Z-.125
N2766 Y.33
N2768 G3 X.1875 Y.3108 I.0192 J0.
N2770 X.2067 Y.33 I0. J.0192
N2772 G1 Y.67
N2774 G3 X.1875 Y.6892 I-.0192 J0.
N2776 X.1683 Y.67 I0. J-.0192
N2778 G1 Y.5
N2780 G3 X.1875 Y.4808 I.0192 J0.
N2782 X.2067 Y.5 I0. J.0192
N2784 X.1683 Y.5384 I-.0384 J0.
N2786 X.13 Y.5 I0. J-.0384
N2788 G1 Y.33
N2790 G3 X.1875 Y.2725 I.0575 J0.
N2792 X.245 Y.33 I0. J.0575
N2794 G1 Y.67
N2796 G3 X.1875 Y.7275 I-.0575 J0.
N2798 X.13 Y.67 I0. J-.0575
N2800 G1 Y.5
N2802 X.1875 F6.16
N2804 G3 X.1338 Y.5537 I-.0537 J0. F10.
N2806 X.08 Y.5 I0. J-.0537
N2808 G1 Y.33
N2810 G3 X.1875 Y.2225 I.1075 J0.
N2812 X.295 Y.33 I0. J.1075
N2814 G1 Y.67
N2816 G3 X.1875 Y.7775 I-.1075 J0.
N2818 X.08 Y.67 I0. J-.1075
N2820 G1 Y.5
N2822 G3 X.1338 Y.4462 I.0538 J0.
N2824 X.1875 Y.5 I0. J.0538
N2826 G0 Z.25
N2828 M5
N2830 G91 G28 Z0. M9
N2832 G28 X0. Y0. A0.
N2834 M30
%
