%
O0000(SS3_BOTTOM)
(DATE=DD-MM-YY - 30-03-16 TIME=HH:MM - 13:08)
(MCX FILE - E:\SEEBECK_SOLIDWORKS\MASTERCAM\SS_BLOCK3_BOTTOM.SLDPRT)
(NC FILE - E:\SEEBECK_SOLIDWORKS\MASTERCAM\SS3_BOTTOM.NC)
(MATERIAL - ALUMINUM INCH - 2024)
( T1 |  1/8 CENTERDRILL | H1 )
( T9 |  LTR. H DRILL | H9 )
( T2 |  NO. 16 DRILL | H2 )
( T8 |  NO. 12 DRILL | H8 )
( T6 |  1/8 FLAT ENDMILL | H6 )
N100 G20
N102 G0 G17 G40 G49 G80 G90
N104 T1 M6
N106 G0 G90 G54 X.26 Y.5 A0. S5000 M3
N108 G43 H1 Z.1 M8
N110 G99 G81 Z-.0625 R.1 F5.
N112 X.98 Y.4248
N114 X1.7 Y.5
N116 X1.5257 Y1.4248
N118 X.98 Y1.5
N120 X.4343 Y1.4248
N122 X.98 Y1.
N124 G80
N126 M5
N128 G91 G28 Z0. M9
N130 A0.
N132 M01
N134 T9 M6
N136 G0 G90 G54 X.98 Y.4248 A0. S3000 M3
N138 G43 H9 Z.1 M8
N140 G99 G83 Z-.33 R.1 Q.0625 F5.
N142 X1.5257 Y1.4248
N144 X.4343
N146 G80
N148 M5
N150 G91 G28 Z0. M9
N152 A0.
N154 M01
N156 T2 M6
N158 G0 G90 G54 X.26 Y.5 A0. S5000 M3
N160 G43 H2 Z.1 M8
N162 G99 G83 Z-.31 R.1 Q.0625 F5.
N164 X1.7
N166 X.98 Y1.5
N168 G80
N170 M5
N172 G91 G28 Z0. M9
N174 A0.
N176 M01
N178 T8 M6
N180 G0 G90 G54 X.98 Y1. A0. S4000 M3
N182 G43 H8 Z.1 M8
N184 G99 G83 Z-.31 R.1 Q.0625 F6.
N186 G80
N188 M5
N190 G91 G28 Z0. M9
N192 A0.
N194 M01
N196 T6 M6
N198 G0 G90 G54 X.4128 Y1.4274 A0. S5000 M3
N200 G43 H6 Z.25 M8
N202 Z.1
N204 G1 Z0. F6.16
N206 Y1.2048 Z-.0117 F10.
N208 X.4139 Y1.1982 Z-.0121
N210 X.4169 Y1.1922 Z-.0124
N212 X.4217 Y1.1874 Z-.0128
N214 X.4277 Y1.1844 Z-.0131
N216 X.4343 Y1.1833 Z-.0135
N218 X.4409 Y1.1844 Z-.0138
N220 X.4469 Y1.1874 Z-.0142
N222 X.4517 Y1.1922 Z-.0145
N224 X.4547 Y1.1982 Z-.0149
N226 X.4558 Y1.2048 Z-.0152
N228 Y1.6448 Z-.0383
N230 X.4547 Y1.6514 Z-.0387
N232 X.4517 Y1.6574 Z-.039
N234 X.4469 Y1.6622 Z-.0394
N236 X.4409 Y1.6652 Z-.0397
N238 X.4343 Y1.6663 Z-.0401
N240 X.4277 Y1.6652 Z-.0404
N242 X.4217 Y1.6622 Z-.0408
N244 X.4169 Y1.6574 Z-.0411
N246 X.4139 Y1.6514 Z-.0415
N248 X.4128 Y1.6448 Z-.0418
N250 Y1.4248 Z-.0533
N252 Y1.2048
N254 G3 X.4343 Y1.1833 I.0215 J0.
N256 X.4558 Y1.2048 I0. J.0215
N258 G1 Y1.6448
N260 G3 X.4343 Y1.6663 I-.0215 J0.
N262 X.4128 Y1.6448 I0. J-.0215
N264 G1 Y1.4248
N266 G3 X.4343 Y1.4033 I.0215 J0.
N268 X.4558 Y1.4248 I0. J.0215
N270 X.4128 Y1.4678 I-.043 J0.
N272 X.3698 Y1.4248 I0. J-.043
N274 G1 Y1.2048
N276 G3 X.4343 Y1.1403 I.0645 J0.
N278 X.4988 Y1.2048 I0. J.0645
N280 G1 Y1.6448
N282 G3 X.4343 Y1.7093 I-.0645 J0.
N284 X.3698 Y1.6448 I0. J-.0645
N286 G1 Y1.4248
N288 G3 X.3913 Y1.4033 I.0215 J0.
N290 X.4128 Y1.4248 I0. J.0215
N292 X.3698 Y1.4678 I-.043 J0.
N294 X.3268 Y1.4248 I0. J-.043
N296 G1 Y1.2048
N298 G3 X.4343 Y1.0973 I.1075 J0.
N300 X.5418 Y1.2048 I0. J.1075
N302 G1 Y1.6448
N304 G3 X.4343 Y1.7523 I-.1075 J0.
N306 X.3268 Y1.6448 I0. J-.1075
N308 G1 Y1.4248
N310 X.4343 F6.16
N312 G3 X.3555 Y1.5036 I-.0788 J0. F10.
N314 X.2768 Y1.4248 I0. J-.0788
N316 G1 Y1.2048
N318 G3 X.4343 Y1.0473 I.1575 J0.
N320 X.5918 Y1.2048 I0. J.1575
N322 G1 Y1.6448
N324 G3 X.4343 Y1.8023 I-.1575 J0.
N326 X.2768 Y1.6448 I0. J-.1575
N328 G1 Y1.4248
N330 G3 X.3555 Y1.3461 I.0787 J0.
N332 X.4343 Y1.4248 I0. J.0787
N334 G0 Z.25
N336 X.4128 Y1.4274
N338 Z.1
N340 G1 Z-.0533 F6.16
N342 Y1.2048 Z-.065 F10.
N344 X.4139 Y1.1982 Z-.0654
N346 X.4169 Y1.1922 Z-.0657
N348 X.4217 Y1.1874 Z-.0661
N350 X.4277 Y1.1844 Z-.0664
N352 X.4343 Y1.1833 Z-.0668
N354 X.4409 Y1.1844 Z-.0671
N356 X.4469 Y1.1874 Z-.0675
N358 X.4517 Y1.1922 Z-.0678
N360 X.4547 Y1.1982 Z-.0682
N362 X.4558 Y1.2048 Z-.0685
N364 Y1.6448 Z-.0916
N366 X.4547 Y1.6514 Z-.092
N368 X.4517 Y1.6574 Z-.0923
N370 X.4469 Y1.6622 Z-.0927
N372 X.4409 Y1.6652 Z-.093
N374 X.4343 Y1.6663 Z-.0934
N376 X.4277 Y1.6652 Z-.0937
N378 X.4217 Y1.6622 Z-.0941
N380 X.4169 Y1.6574 Z-.0944
N382 X.4139 Y1.6514 Z-.0948
N384 X.4128 Y1.6448 Z-.0951
N386 Y1.4248 Z-.1067
N388 Y1.2048
N390 G3 X.4343 Y1.1833 I.0215 J0.
N392 X.4558 Y1.2048 I0. J.0215
N394 G1 Y1.6448
N396 G3 X.4343 Y1.6663 I-.0215 J0.
N398 X.4128 Y1.6448 I0. J-.0215
N400 G1 Y1.4248
N402 G3 X.4343 Y1.4033 I.0215 J0.
N404 X.4558 Y1.4248 I0. J.0215
N406 X.4128 Y1.4678 I-.043 J0.
N408 X.3698 Y1.4248 I0. J-.043
N410 G1 Y1.2048
N412 G3 X.4343 Y1.1403 I.0645 J0.
N414 X.4988 Y1.2048 I0. J.0645
N416 G1 Y1.6448
N418 G3 X.4343 Y1.7093 I-.0645 J0.
N420 X.3698 Y1.6448 I0. J-.0645
N422 G1 Y1.4248
N424 G3 X.3913 Y1.4033 I.0215 J0.
N426 X.4128 Y1.4248 I0. J.0215
N428 X.3698 Y1.4678 I-.043 J0.
N430 X.3268 Y1.4248 I0. J-.043
N432 G1 Y1.2048
N434 G3 X.4343 Y1.0973 I.1075 J0.
N436 X.5418 Y1.2048 I0. J.1075
N438 G1 Y1.6448
N440 G3 X.4343 Y1.7523 I-.1075 J0.
N442 X.3268 Y1.6448 I0. J-.1075
N444 G1 Y1.4248
N446 X.4343 F6.16
N448 G3 X.3555 Y1.5036 I-.0788 J0. F10.
N450 X.2768 Y1.4248 I0. J-.0788
N452 G1 Y1.2048
N454 G3 X.4343 Y1.0473 I.1575 J0.
N456 X.5918 Y1.2048 I0. J.1575
N458 G1 Y1.6448
N460 G3 X.4343 Y1.8023 I-.1575 J0.
N462 X.2768 Y1.6448 I0. J-.1575
N464 G1 Y1.4248
N466 G3 X.3555 Y1.3461 I.0787 J0.
N468 X.4343 Y1.4248 I0. J.0787
N470 G0 Z.25
N472 X.4128 Y1.4274
N474 Z.1
N476 G1 Z-.1067 F6.16
N478 Y1.2048 Z-.1183 F10.
N480 X.4139 Y1.1982 Z-.1187
N482 X.4169 Y1.1922 Z-.119
N484 X.4217 Y1.1874 Z-.1194
N486 X.4277 Y1.1844 Z-.1197
N488 X.4343 Y1.1833 Z-.1201
N490 X.4409 Y1.1844 Z-.1205
N492 X.4469 Y1.1874 Z-.1208
N494 X.4517 Y1.1922 Z-.1212
N496 X.4547 Y1.1982 Z-.1215
N498 X.4558 Y1.2048 Z-.1219
N500 Y1.6448 Z-.1449
N502 X.4547 Y1.6514 Z-.1453
N504 X.4517 Y1.6574 Z-.1456
N506 X.4469 Y1.6622 Z-.146
N508 X.4409 Y1.6652 Z-.1463
N510 X.4343 Y1.6663 Z-.1467
N512 X.4277 Y1.6652 Z-.1471
N514 X.4217 Y1.6622 Z-.1474
N516 X.4169 Y1.6574 Z-.1478
N518 X.4139 Y1.6514 Z-.1481
N520 X.4128 Y1.6448 Z-.1485
N522 Y1.4248 Z-.16
N524 Y1.2048
N526 G3 X.4343 Y1.1833 I.0215 J0.
N528 X.4558 Y1.2048 I0. J.0215
N530 G1 Y1.6448
N532 G3 X.4343 Y1.6663 I-.0215 J0.
N534 X.4128 Y1.6448 I0. J-.0215
N536 G1 Y1.4248
N538 G3 X.4343 Y1.4033 I.0215 J0.
N540 X.4558 Y1.4248 I0. J.0215
N542 X.4128 Y1.4678 I-.043 J0.
N544 X.3698 Y1.4248 I0. J-.043
N546 G1 Y1.2048
N548 G3 X.4343 Y1.1403 I.0645 J0.
N550 X.4988 Y1.2048 I0. J.0645
N552 G1 Y1.6448
N554 G3 X.4343 Y1.7093 I-.0645 J0.
N556 X.3698 Y1.6448 I0. J-.0645
N558 G1 Y1.4248
N560 G3 X.3913 Y1.4033 I.0215 J0.
N562 X.4128 Y1.4248 I0. J.0215
N564 X.3698 Y1.4678 I-.043 J0.
N566 X.3268 Y1.4248 I0. J-.043
N568 G1 Y1.2048
N570 G3 X.4343 Y1.0973 I.1075 J0.
N572 X.5418 Y1.2048 I0. J.1075
N574 G1 Y1.6448
N576 G3 X.4343 Y1.7523 I-.1075 J0.
N578 X.3268 Y1.6448 I0. J-.1075
N580 G1 Y1.4248
N582 X.4343 F6.16
N584 G3 X.3555 Y1.5036 I-.0788 J0. F10.
N586 X.2768 Y1.4248 I0. J-.0788
N588 G1 Y1.2048
N590 G3 X.4343 Y1.0473 I.1575 J0.
N592 X.5918 Y1.2048 I0. J.1575
N594 G1 Y1.6448
N596 G3 X.4343 Y1.8023 I-.1575 J0.
N598 X.2768 Y1.6448 I0. J-.1575
N600 G1 Y1.4248
N602 G3 X.3555 Y1.3461 I.0787 J0.
N604 X.4343 Y1.4248 I0. J.0787
N606 G0 Z.25
N608 X1.5042 Y1.4274
N610 Z.1
N612 G1 Z0. F6.16
N614 Y1.2048 Z-.0117 F10.
N616 X1.5053 Y1.1982 Z-.0121
N618 X1.5083 Y1.1922 Z-.0124
N620 X1.5131 Y1.1874 Z-.0128
N622 X1.5191 Y1.1844 Z-.0131
N624 X1.5257 Y1.1833 Z-.0135
N626 X1.5323 Y1.1844 Z-.0138
N628 X1.5383 Y1.1874 Z-.0142
N630 X1.5431 Y1.1922 Z-.0145
N632 X1.5461 Y1.1982 Z-.0149
N634 X1.5472 Y1.2048 Z-.0152
N636 Y1.6448 Z-.0383
N638 X1.5461 Y1.6514 Z-.0387
N640 X1.5431 Y1.6574 Z-.039
N642 X1.5383 Y1.6622 Z-.0394
N644 X1.5323 Y1.6652 Z-.0397
N646 X1.5257 Y1.6663 Z-.0401
N648 X1.5191 Y1.6652 Z-.0404
N650 X1.5131 Y1.6622 Z-.0408
N652 X1.5083 Y1.6574 Z-.0411
N654 X1.5053 Y1.6514 Z-.0415
N656 X1.5042 Y1.6448 Z-.0418
N658 Y1.4248 Z-.0533
N660 Y1.2048
N662 G3 X1.5257 Y1.1833 I.0215 J0.
N664 X1.5472 Y1.2048 I0. J.0215
N666 G1 Y1.6448
N668 G3 X1.5257 Y1.6663 I-.0215 J0.
N670 X1.5042 Y1.6448 I0. J-.0215
N672 G1 Y1.4248
N674 G3 X1.5257 Y1.4033 I.0215 J0.
N676 X1.5472 Y1.4248 I0. J.0215
N678 X1.5042 Y1.4678 I-.043 J0.
N680 X1.4612 Y1.4248 I0. J-.043
N682 G1 Y1.2048
N684 G3 X1.5257 Y1.1403 I.0645 J0.
N686 X1.5902 Y1.2048 I0. J.0645
N688 G1 Y1.6448
N690 G3 X1.5257 Y1.7093 I-.0645 J0.
N692 X1.4612 Y1.6448 I0. J-.0645
N694 G1 Y1.4248
N696 G3 X1.4827 Y1.4033 I.0215 J0.
N698 X1.5042 Y1.4248 I0. J.0215
N700 X1.4612 Y1.4678 I-.043 J0.
N702 X1.4182 Y1.4248 I0. J-.043
N704 G1 Y1.2048
N706 G3 X1.5257 Y1.0973 I.1075 J0.
N708 X1.6332 Y1.2048 I0. J.1075
N710 G1 Y1.6448
N712 G3 X1.5257 Y1.7523 I-.1075 J0.
N714 X1.4182 Y1.6448 I0. J-.1075
N716 G1 Y1.4248
N718 X1.5257 F6.16
N720 G3 X1.447 Y1.5035 I-.0787 J0. F10.
N722 X1.3682 Y1.4248 I0. J-.0787
N724 G1 Y1.2048
N726 G3 X1.5257 Y1.0473 I.1575 J0.
N728 X1.6832 Y1.2048 I0. J.1575
N730 G1 Y1.6448
N732 G3 X1.5257 Y1.8023 I-.1575 J0.
N734 X1.3682 Y1.6448 I0. J-.1575
N736 G1 Y1.4248
N738 G3 X1.447 Y1.346 I.0788 J0.
N740 X1.5257 Y1.4248 I0. J.0788
N742 G0 Z.25
N744 X1.5042 Y1.4274
N746 Z.1
N748 G1 Z-.0533 F6.16
N750 Y1.2048 Z-.065 F10.
N752 X1.5053 Y1.1982 Z-.0654
N754 X1.5083 Y1.1922 Z-.0657
N756 X1.5131 Y1.1874 Z-.0661
N758 X1.5191 Y1.1844 Z-.0664
N760 X1.5257 Y1.1833 Z-.0668
N762 X1.5323 Y1.1844 Z-.0671
N764 X1.5383 Y1.1874 Z-.0675
N766 X1.5431 Y1.1922 Z-.0678
N768 X1.5461 Y1.1982 Z-.0682
N770 X1.5472 Y1.2048 Z-.0685
N772 Y1.6448 Z-.0916
N774 X1.5461 Y1.6514 Z-.092
N776 X1.5431 Y1.6574 Z-.0923
N778 X1.5383 Y1.6622 Z-.0927
N780 X1.5323 Y1.6652 Z-.093
N782 X1.5257 Y1.6663 Z-.0934
N784 X1.5191 Y1.6652 Z-.0937
N786 X1.5131 Y1.6622 Z-.0941
N788 X1.5083 Y1.6574 Z-.0944
N790 X1.5053 Y1.6514 Z-.0948
N792 X1.5042 Y1.6448 Z-.0951
N794 Y1.4248 Z-.1067
N796 Y1.2048
N798 G3 X1.5257 Y1.1833 I.0215 J0.
N800 X1.5472 Y1.2048 I0. J.0215
N802 G1 Y1.6448
N804 G3 X1.5257 Y1.6663 I-.0215 J0.
N806 X1.5042 Y1.6448 I0. J-.0215
N808 G1 Y1.4248
N810 G3 X1.5257 Y1.4033 I.0215 J0.
N812 X1.5472 Y1.4248 I0. J.0215
N814 X1.5042 Y1.4678 I-.043 J0.
N816 X1.4612 Y1.4248 I0. J-.043
N818 G1 Y1.2048
N820 G3 X1.5257 Y1.1403 I.0645 J0.
N822 X1.5902 Y1.2048 I0. J.0645
N824 G1 Y1.6448
N826 G3 X1.5257 Y1.7093 I-.0645 J0.
N828 X1.4612 Y1.6448 I0. J-.0645
N830 G1 Y1.4248
N832 G3 X1.4827 Y1.4033 I.0215 J0.
N834 X1.5042 Y1.4248 I0. J.0215
N836 X1.4612 Y1.4678 I-.043 J0.
N838 X1.4182 Y1.4248 I0. J-.043
N840 G1 Y1.2048
N842 G3 X1.5257 Y1.0973 I.1075 J0.
N844 X1.6332 Y1.2048 I0. J.1075
N846 G1 Y1.6448
N848 G3 X1.5257 Y1.7523 I-.1075 J0.
N850 X1.4182 Y1.6448 I0. J-.1075
N852 G1 Y1.4248
N854 X1.5257 F6.16
N856 G3 X1.447 Y1.5035 I-.0787 J0. F10.
N858 X1.3682 Y1.4248 I0. J-.0787
N860 G1 Y1.2048
N862 G3 X1.5257 Y1.0473 I.1575 J0.
N864 X1.6832 Y1.2048 I0. J.1575
N866 G1 Y1.6448
N868 G3 X1.5257 Y1.8023 I-.1575 J0.
N870 X1.3682 Y1.6448 I0. J-.1575
N872 G1 Y1.4248
N874 G3 X1.447 Y1.346 I.0788 J0.
N876 X1.5257 Y1.4248 I0. J.0788
N878 G0 Z.25
N880 X1.5042 Y1.4274
N882 Z.1
N884 G1 Z-.1067 F6.16
N886 Y1.2048 Z-.1183 F10.
N888 X1.5053 Y1.1982 Z-.1187
N890 X1.5083 Y1.1922 Z-.119
N892 X1.5131 Y1.1874 Z-.1194
N894 X1.5191 Y1.1844 Z-.1197
N896 X1.5257 Y1.1833 Z-.1201
N898 X1.5323 Y1.1844 Z-.1205
N900 X1.5383 Y1.1874 Z-.1208
N902 X1.5431 Y1.1922 Z-.1212
N904 X1.5461 Y1.1982 Z-.1215
N906 X1.5472 Y1.2048 Z-.1219
N908 Y1.6448 Z-.1449
N910 X1.5461 Y1.6514 Z-.1453
N912 X1.5431 Y1.6574 Z-.1456
N914 X1.5383 Y1.6622 Z-.146
N916 X1.5323 Y1.6652 Z-.1463
N918 X1.5257 Y1.6663 Z-.1467
N920 X1.5191 Y1.6652 Z-.1471
N922 X1.5131 Y1.6622 Z-.1474
N924 X1.5083 Y1.6574 Z-.1478
N926 X1.5053 Y1.6514 Z-.1481
N928 X1.5042 Y1.6448 Z-.1485
N930 Y1.4248 Z-.16
N932 Y1.2048
N934 G3 X1.5257 Y1.1833 I.0215 J0.
N936 X1.5472 Y1.2048 I0. J.0215
N938 G1 Y1.6448
N940 G3 X1.5257 Y1.6663 I-.0215 J0.
N942 X1.5042 Y1.6448 I0. J-.0215
N944 G1 Y1.4248
N946 G3 X1.5257 Y1.4033 I.0215 J0.
N948 X1.5472 Y1.4248 I0. J.0215
N950 X1.5042 Y1.4678 I-.043 J0.
N952 X1.4612 Y1.4248 I0. J-.043
N954 G1 Y1.2048
N956 G3 X1.5257 Y1.1403 I.0645 J0.
N958 X1.5902 Y1.2048 I0. J.0645
N960 G1 Y1.6448
N962 G3 X1.5257 Y1.7093 I-.0645 J0.
N964 X1.4612 Y1.6448 I0. J-.0645
N966 G1 Y1.4248
N968 G3 X1.4827 Y1.4033 I.0215 J0.
N970 X1.5042 Y1.4248 I0. J.0215
N972 X1.4612 Y1.4678 I-.043 J0.
N974 X1.4182 Y1.4248 I0. J-.043
N976 G1 Y1.2048
N978 G3 X1.5257 Y1.0973 I.1075 J0.
N980 X1.6332 Y1.2048 I0. J.1075
N982 G1 Y1.6448
N984 G3 X1.5257 Y1.7523 I-.1075 J0.
N986 X1.4182 Y1.6448 I0. J-.1075
N988 G1 Y1.4248
N990 X1.5257 F6.16
N992 G3 X1.447 Y1.5035 I-.0787 J0. F10.
N994 X1.3682 Y1.4248 I0. J-.0787
N996 G1 Y1.2048
N998 G3 X1.5257 Y1.0473 I.1575 J0.
N1000 X1.6832 Y1.2048 I0. J.1575
N1002 G1 Y1.6448
N1004 G3 X1.5257 Y1.8023 I-.1575 J0.
N1006 X1.3682 Y1.6448 I0. J-.1575
N1008 G1 Y1.4248
N1010 G3 X1.447 Y1.346 I.0788 J0.
N1012 X1.5257 Y1.4248 I0. J.0788
N1014 G0 Z.25
N1016 X.9826 Y.4463
N1018 Z.1
N1020 G1 Z0. F6.16
N1022 X.76 Z-.0117 F10.
N1024 X.7534 Y.4452 Z-.0121
N1026 X.7474 Y.4422 Z-.0124
N1028 X.7426 Y.4374 Z-.0128
N1030 X.7396 Y.4314 Z-.0131
N1032 X.7385 Y.4248 Z-.0135
N1034 X.7396 Y.4182 Z-.0138
N1036 X.7426 Y.4122 Z-.0142
N1038 X.7474 Y.4074 Z-.0145
N1040 X.7534 Y.4044 Z-.0149
N1042 X.76 Y.4033 Z-.0152
N1044 X1.2 Z-.0383
N1046 X1.2066 Y.4044 Z-.0387
N1048 X1.2126 Y.4074 Z-.039
N1050 X1.2174 Y.4122 Z-.0394
N1052 X1.2204 Y.4182 Z-.0397
N1054 X1.2215 Y.4248 Z-.0401
N1056 X1.2204 Y.4314 Z-.0404
N1058 X1.2174 Y.4374 Z-.0408
N1060 X1.2126 Y.4422 Z-.0411
N1062 X1.2066 Y.4452 Z-.0415
N1064 X1.2 Y.4463 Z-.0418
N1066 X.98 Z-.0533
N1068 X.76
N1070 G3 X.7385 Y.4248 I0. J-.0215
N1072 X.76 Y.4033 I.0215 J0.
N1074 G1 X1.2
N1076 G3 X1.2215 Y.4248 I0. J.0215
N1078 X1.2 Y.4463 I-.0215 J0.
N1080 G1 X.98
N1082 G3 X.9585 Y.4248 I0. J-.0215
N1084 X.98 Y.4033 I.0215 J0.
N1086 X1.023 Y.4463 I0. J.043
N1088 X.98 Y.4893 I-.043 J0.
N1090 G1 X.76
N1092 G3 X.6955 Y.4248 I0. J-.0645
N1094 X.76 Y.3603 I.0645 J0.
N1096 G1 X1.2
N1098 G3 X1.2645 Y.4248 I0. J.0645
N1100 X1.2 Y.4893 I-.0645 J0.
N1102 G1 X.98
N1104 G3 X.9585 Y.4678 I0. J-.0215
N1106 X.98 Y.4463 I.0215 J0.
N1108 X1.023 Y.4893 I0. J.043
N1110 X.98 Y.5323 I-.043 J0.
N1112 G1 X.76
N1114 G3 X.6525 Y.4248 I0. J-.1075
N1116 X.76 Y.3173 I.1075 J0.
N1118 G1 X1.2
N1120 G3 X1.3075 Y.4248 I0. J.1075
N1122 X1.2 Y.5323 I-.1075 J0.
N1124 G1 X.98
N1126 Y.4248 F6.16
N1128 G3 X1.0588 Y.5036 I0. J.0788 F10.
N1130 X.98 Y.5823 I-.0788 J0.
N1132 G1 X.76
N1134 G3 X.6025 Y.4248 I0. J-.1575
N1136 X.76 Y.2673 I.1575 J0.
N1138 G1 X1.2
N1140 G3 X1.3575 Y.4248 I0. J.1575
N1142 X1.2 Y.5823 I-.1575 J0.
N1144 G1 X.98
N1146 G3 X.9013 Y.5036 I0. J-.0787
N1148 X.98 Y.4248 I.0787 J0.
N1150 G0 Z.25
N1152 X.9826 Y.4463
N1154 Z.1
N1156 G1 Z-.0533 F6.16
N1158 X.76 Z-.065 F10.
N1160 X.7534 Y.4452 Z-.0654
N1162 X.7474 Y.4422 Z-.0657
N1164 X.7426 Y.4374 Z-.0661
N1166 X.7396 Y.4314 Z-.0664
N1168 X.7385 Y.4248 Z-.0668
N1170 X.7396 Y.4182 Z-.0671
N1172 X.7426 Y.4122 Z-.0675
N1174 X.7474 Y.4074 Z-.0678
N1176 X.7534 Y.4044 Z-.0682
N1178 X.76 Y.4033 Z-.0685
N1180 X1.2 Z-.0916
N1182 X1.2066 Y.4044 Z-.092
N1184 X1.2126 Y.4074 Z-.0923
N1186 X1.2174 Y.4122 Z-.0927
N1188 X1.2204 Y.4182 Z-.093
N1190 X1.2215 Y.4248 Z-.0934
N1192 X1.2204 Y.4314 Z-.0937
N1194 X1.2174 Y.4374 Z-.0941
N1196 X1.2126 Y.4422 Z-.0944
N1198 X1.2066 Y.4452 Z-.0948
N1200 X1.2 Y.4463 Z-.0951
N1202 X.98 Z-.1067
N1204 X.76
N1206 G3 X.7385 Y.4248 I0. J-.0215
N1208 X.76 Y.4033 I.0215 J0.
N1210 G1 X1.2
N1212 G3 X1.2215 Y.4248 I0. J.0215
N1214 X1.2 Y.4463 I-.0215 J0.
N1216 G1 X.98
N1218 G3 X.9585 Y.4248 I0. J-.0215
N1220 X.98 Y.4033 I.0215 J0.
N1222 X1.023 Y.4463 I0. J.043
N1224 X.98 Y.4893 I-.043 J0.
N1226 G1 X.76
N1228 G3 X.6955 Y.4248 I0. J-.0645
N1230 X.76 Y.3603 I.0645 J0.
N1232 G1 X1.2
N1234 G3 X1.2645 Y.4248 I0. J.0645
N1236 X1.2 Y.4893 I-.0645 J0.
N1238 G1 X.98
N1240 G3 X.9585 Y.4678 I0. J-.0215
N1242 X.98 Y.4463 I.0215 J0.
N1244 X1.023 Y.4893 I0. J.043
N1246 X.98 Y.5323 I-.043 J0.
N1248 G1 X.76
N1250 G3 X.6525 Y.4248 I0. J-.1075
N1252 X.76 Y.3173 I.1075 J0.
N1254 G1 X1.2
N1256 G3 X1.3075 Y.4248 I0. J.1075
N1258 X1.2 Y.5323 I-.1075 J0.
N1260 G1 X.98
N1262 Y.4248 F6.16
N1264 G3 X1.0588 Y.5036 I0. J.0788 F10.
N1266 X.98 Y.5823 I-.0788 J0.
N1268 G1 X.76
N1270 G3 X.6025 Y.4248 I0. J-.1575
N1272 X.76 Y.2673 I.1575 J0.
N1274 G1 X1.2
N1276 G3 X1.3575 Y.4248 I0. J.1575
N1278 X1.2 Y.5823 I-.1575 J0.
N1280 G1 X.98
N1282 G3 X.9013 Y.5036 I0. J-.0787
N1284 X.98 Y.4248 I.0787 J0.
N1286 G0 Z.25
N1288 X.9826 Y.4463
N1290 Z.1
N1292 G1 Z-.1067 F6.16
N1294 X.76 Z-.1183 F10.
N1296 X.7534 Y.4452 Z-.1187
N1298 X.7474 Y.4422 Z-.119
N1300 X.7426 Y.4374 Z-.1194
N1302 X.7396 Y.4314 Z-.1197
N1304 X.7385 Y.4248 Z-.1201
N1306 X.7396 Y.4182 Z-.1205
N1308 X.7426 Y.4122 Z-.1208
N1310 X.7474 Y.4074 Z-.1212
N1312 X.7534 Y.4044 Z-.1215
N1314 X.76 Y.4033 Z-.1219
N1316 X1.2 Z-.1449
N1318 X1.2066 Y.4044 Z-.1453
N1320 X1.2126 Y.4074 Z-.1456
N1322 X1.2174 Y.4122 Z-.146
N1324 X1.2204 Y.4182 Z-.1463
N1326 X1.2215 Y.4248 Z-.1467
N1328 X1.2204 Y.4314 Z-.1471
N1330 X1.2174 Y.4374 Z-.1474
N1332 X1.2126 Y.4422 Z-.1478
N1334 X1.2066 Y.4452 Z-.1481
N1336 X1.2 Y.4463 Z-.1485
N1338 X.98 Z-.16
N1340 X.76
N1342 G3 X.7385 Y.4248 I0. J-.0215
N1344 X.76 Y.4033 I.0215 J0.
N1346 G1 X1.2
N1348 G3 X1.2215 Y.4248 I0. J.0215
N1350 X1.2 Y.4463 I-.0215 J0.
N1352 G1 X.98
N1354 G3 X.9585 Y.4248 I0. J-.0215
N1356 X.98 Y.4033 I.0215 J0.
N1358 X1.023 Y.4463 I0. J.043
N1360 X.98 Y.4893 I-.043 J0.
N1362 G1 X.76
N1364 G3 X.6955 Y.4248 I0. J-.0645
N1366 X.76 Y.3603 I.0645 J0.
N1368 G1 X1.2
N1370 G3 X1.2645 Y.4248 I0. J.0645
N1372 X1.2 Y.4893 I-.0645 J0.
N1374 G1 X.98
N1376 G3 X.9585 Y.4678 I0. J-.0215
N1378 X.98 Y.4463 I.0215 J0.
N1380 X1.023 Y.4893 I0. J.043
N1382 X.98 Y.5323 I-.043 J0.
N1384 G1 X.76
N1386 G3 X.6525 Y.4248 I0. J-.1075
N1388 X.76 Y.3173 I.1075 J0.
N1390 G1 X1.2
N1392 G3 X1.3075 Y.4248 I0. J.1075
N1394 X1.2 Y.5323 I-.1075 J0.
N1396 G1 X.98
N1398 Y.4248 F6.16
N1400 G3 X1.0588 Y.5036 I0. J.0788 F10.
N1402 X.98 Y.5823 I-.0788 J0.
N1404 G1 X.76
N1406 G3 X.6025 Y.4248 I0. J-.1575
N1408 X.76 Y.2673 I.1575 J0.
N1410 G1 X1.2
N1412 G3 X1.3575 Y.4248 I0. J.1575
N1414 X1.2 Y.5823 I-.1575 J0.
N1416 G1 X.98
N1418 G3 X.9013 Y.5036 I0. J-.0787
N1420 X.98 Y.4248 I.0787 J0.
N1422 G0 Z.25
N1424 M5
N1426 G91 G28 Z0. M9
N1428 G28 X0. Y0. A0.
N1430 M30
%
