%
O0000(ALUMINUM_PLATE)
(DATE=DD-MM-YY - 02-03-16 TIME=HH:MM - 09:35)
(MCX FILE - E:\LOWTEMP_DESIGN\MASTERCAM\ALUMINUM PLATE.SLDPRT)
(NC FILE - E:\LOWTEMP_DESIGN\MASTERCAM\ALUMINUM_PLATE.NC)
(MATERIAL - ALUMINUM INCH - 2024)
( T1 |  1/8 CENTERDRILL | H1 )
( T2 |  LTR. H DRILL | H2 )
( T3 |  NO. 29 DRILL | H3 )
( T4 |  NO. 11 DRILL | H4 )
( T5 |  NO. 8-32 TAPRH | H5 )
N100 G20
N102 G0 G17 G40 G49 G80 G90
N104 T1 M6
N106 G0 G90 G54 X2. Y.375 A0. S5000 M3
N108 G43 H1 Z.1 M8
N110 G99 G81 Z-.0625 R.1 F4.
N112 Y1.
N114 Y1.625
N116 X2.5 Y1.
N118 X3. Y.375
N120 Y1.
N122 Y1.625
N124 G80
N126 M5
N128 G91 G28 Z0. M9
N130 A0.
N132 M01
N134 T2 M6
N136 G0 G90 G54 X2. Y.375 A0. S3000 M3
N138 G43 H2 Z.1 M8
N140 G99 G83 Z-.5799 R.1 Q.1 F6.
N142 Y1.625
N144 X3. Y.375
N146 Y1.625
N148 G80
N150 M5
N152 G91 G28 Z0. M9
N154 A0.
N156 M01
N158 T3 M6
N160 G0 G90 G54 X2. Y1. A0. S5000 M3
N162 G43 H3 Z.1 M8
N164 G99 G83 Z-.5409 R.1 Q.1 F7.
N166 X3.
N168 G80
N170 M5
N172 G91 G28 Z0. M9
N174 A0.
N176 M01
N178 T4 M6
N180 G0 G90 G54 X2.5 Y1. A0. S4800 M3
N182 G43 H4 Z.1 M8
N184 G99 G83 Z-.5574 R.1 Q.1 F8.
N186 G80
N188 M5
N190 G91 G28 Z0. M9
N192 A0.
N194 M01
N196 T5 M6
N198 G0 G90 G54 X2. Y1. A0.
N200 G43 H5 Z.1 M8
N202 G95
N204 M29 S1630
N206 G99 G84 Z-.6 R.1 F.0313
N208 X3.
N210 G80
N212 G94
N214 M5
N216 G91 G28 Z0. M9
N218 G28 X0. Y0. A0.
N220 M30
%
